;FLAVOR:Marlin
;TIME:4943
;Filament used: 3.61634m
;Layer height: 0.2
;Generated with Cura_SteamEngine 3.6.0
M140 S58
M105
M190 S58
M104 S210
M105
M109 S210
M82 ;absolute extrusion mode
G21 ;metric values
G90 ;absolute positioning
M82 ;set extruder to absolute mode
M107 ;start with the fan off
G28 X0 Y0 ;move X/Y to min endstops
G28 Z0 ;move Z to min endstops
G1 Z15.0 F9000 ;move the platform down 15mm
G92 E0 ;zero the extruded length
G1 F200 E3 ;extrude 3mm of feed stock
G92 E0 ;zero the extruded length again
G1 F9000
;Put printing message on LCD screen
M117 Printing...
G92 E0
G1 F1500 E-6.5
;LAYER_COUNT:25
;LAYER:0
M107
G0 F3600 X62.589 Y116.015 Z0.3
;TYPE:SKIRT
G1 F1500 E0
G1 F1200 X63.01 Y115.826 E0.02302
G1 X63.492 Y115.626 E0.04906
G1 X64.235 Y115.36 E0.08843
G1 X65.002 Y115.171 E0.12784
G1 X65.453 Y115.098 E0.15063
G1 X65.972 Y115.029 E0.17676
G1 X67.002 Y114.961 E0.22825
G1 X137.547 Y114.98 E3.74776
G1 X138.607 Y115.053 E3.80077
G1 X139.691 Y115.202 E3.85536
G1 X140.732 Y115.418 E3.9084
G1 X141.782 Y115.712 E3.9628
G1 X142.785 Y116.068 E4.0159
G1 X143.787 Y116.503 E4.07039
G1 X144.737 Y116.996 E4.12379
G1 X145.67 Y117.564 E4.17829
G1 X146.531 Y118.171 E4.23084
G1 X147.377 Y118.858 E4.28521
G1 X148.158 Y119.586 E4.33848
G1 X148.904 Y120.384 E4.39298
G1 X149.588 Y121.226 E4.4471
G1 X150.217 Y122.121 E4.50168
G1 X150.758 Y123.012 E4.55368
G1 X151.26 Y123.979 E4.60804
G1 X151.687 Y124.961 E4.66146
G1 X152.053 Y125.991 E4.716
G1 X152.34 Y127.016 E4.7691
G1 X152.562 Y128.084 E4.82352
G1 X152.707 Y129.136 E4.87651
G1 X152.782 Y130.226 E4.93101
G1 X152.8 Y130.764 E4.95787
G1 X152.783 Y177.024 E7.26579
G1 X152.743 Y177.813 E7.30521
G1 X152.623 Y178.593 E7.34458
G1 X152.522 Y179.021 E7.36652
G1 X152.388 Y179.526 E7.39258
G1 X152.147 Y180.279 E7.43203
G1 X151.831 Y181.002 E7.47139
G1 X151.598 Y181.436 E7.49597
G1 X151.335 Y181.89 E7.52214
G1 X150.905 Y182.552 E7.56153
G1 X150.411 Y183.168 E7.60092
G1 X150.101 Y183.495 E7.6234
G1 X149.734 Y183.862 E7.6493
G1 X149.148 Y184.392 E7.68872
G1 X148.512 Y184.859 E7.72808
G1 X148.122 Y185.1 E7.75095
G1 X147.667 Y185.363 E7.77717
G1 X146.965 Y185.723 E7.81653
G1 X146.229 Y186.01 E7.85594
G1 X145.768 Y186.148 E7.87995
G1 X145.264 Y186.282 E7.90597
G1 X144.492 Y186.446 E7.94534
G1 X143.707 Y186.531 E7.98474
G1 X143.26 Y186.544 E8.00705
G1 X66.74 Y186.544 E11.82465
G1 X65.951 Y186.504 E11.86406
G1 X65.171 Y186.385 E11.90342
G1 X64.736 Y186.282 E11.92573
G1 X64.232 Y186.148 E11.95175
G1 X63.48 Y185.907 E11.99114
G1 X62.756 Y185.591 E12.03055
G1 X62.333 Y185.363 E12.05453
G1 X61.878 Y185.1 E12.08075
G1 X61.215 Y184.671 E12.12014
G1 X60.599 Y184.177 E12.15954
G1 X60.266 Y183.862 E12.18241
G1 X59.899 Y183.495 E12.2083
G1 X59.369 Y182.909 E12.24772
G1 X58.902 Y182.273 E12.28709
G1 X58.665 Y181.89 E12.30956
G1 X58.402 Y181.436 E12.33573
G1 X58.041 Y180.733 E12.37516
G1 X57.753 Y179.998 E12.41454
G1 X57.612 Y179.526 E12.43912
G1 X57.478 Y179.021 E12.46519
G1 X57.314 Y178.249 E12.50456
G1 X57.23 Y177.464 E12.54395
G1 X57.217 Y177.024 E12.56591
G1 X57.2 Y124.764 E15.17317
G1 X57.268 Y123.731 E15.22482
G1 X57.337 Y123.213 E15.25089
G1 X57.481 Y122.437 E15.29027
G1 X57.703 Y121.679 E15.32967
G1 X57.861 Y121.261 E15.35197
G1 X58.06 Y120.78 E15.37794
G1 X58.399 Y120.067 E15.41732
G1 X58.808 Y119.391 E15.45674
G1 X59.075 Y119.02 E15.47955
G1 X59.392 Y118.606 E15.50556
G1 X59.903 Y118.004 E15.54496
G1 X60.473 Y117.457 E15.58437
G1 X60.834 Y117.162 E15.60763
G1 X61.248 Y116.844 E15.63367
G1 X61.897 Y116.395 E15.67304
G1 X62.589 Y116.015 E15.71243
G0 F3600 X62.8 Y116.357
G1 F1200 X63.163 Y116.195 E15.73226
G1 X63.645 Y115.995 E15.7583
G1 X64.37 Y115.738 E15.79667
G1 X65.117 Y115.557 E15.83502
G1 X65.506 Y115.495 E15.85467
G1 X66.025 Y115.426 E15.88079
G1 X67.002 Y115.361 E15.92964
G1 X137.547 Y115.38 E19.44915
G1 X138.553 Y115.449 E19.49946
G1 X139.637 Y115.598 E19.55405
G1 X140.624 Y115.803 E19.60434
G1 X141.674 Y116.097 E19.65874
G1 X142.626 Y116.435 E19.70914
G1 X143.628 Y116.87 E19.76364
G1 X144.529 Y117.337 E19.81427
G1 X145.462 Y117.905 E19.86876
G1 X146.279 Y118.482 E19.91866
G1 X147.125 Y119.169 E19.97303
G1 X147.866 Y119.86 E20.02358
G1 X148.612 Y120.658 E20.07808
G1 X149.26 Y121.456 E20.12937
G1 X149.889 Y122.351 E20.18394
G1 X150.403 Y123.196 E20.23329
G1 X150.905 Y124.163 E20.28764
G1 X151.31 Y125.095 E20.33834
G1 X151.676 Y126.125 E20.39288
G1 X151.948 Y127.097 E20.44323
G1 X152.17 Y128.165 E20.49765
G1 X152.308 Y129.163 E20.54792
G1 X152.383 Y130.253 E20.60243
G1 X152.4 Y130.764 E20.62793
G1 X152.383 Y177.024 E22.93586
G1 X152.343 Y177.792 E22.97422
G1 X152.135 Y178.919 E23.0314
G1 X152.001 Y179.424 E23.05746
G1 X151.766 Y180.156 E23.09582
G1 X151.455 Y180.86 E23.13422
G1 X151.252 Y181.235 E23.15549
G1 X150.989 Y181.689 E23.18167
G1 X150.57 Y182.334 E23.22004
G1 X150.085 Y182.932 E23.25845
G1 X149.819 Y183.213 E23.27776
G1 X149.452 Y183.58 E23.30365
G1 X148.88 Y184.094 E23.34202
G1 X148.258 Y184.547 E23.38041
G1 X147.922 Y184.754 E23.4001
G1 X147.467 Y185.017 E23.42632
G1 X146.782 Y185.367 E23.46469
G1 X146.065 Y185.643 E23.50302
G1 X145.665 Y185.762 E23.52384
G1 X145.161 Y185.896 E23.54986
G1 X144.409 Y186.054 E23.5882
G1 X143.26 Y186.144 E23.6457
G1 X66.74 Y186.144 E27.4633
G1 X65.972 Y186.104 E27.50166
G1 X64.839 Y185.896 E27.55913
G1 X64.335 Y185.762 E27.58515
G1 X63.603 Y185.526 E27.62352
G1 X62.899 Y185.215 E27.66192
G1 X62.533 Y185.017 E27.68268
G1 X62.078 Y184.754 E27.7089
G1 X61.433 Y184.335 E27.74727
G1 X60.835 Y183.851 E27.78565
G1 X60.548 Y183.58 E27.80535
G1 X60.181 Y183.213 E27.83124
G1 X59.667 Y182.641 E27.86961
G1 X59.214 Y182.019 E27.908
G1 X59.011 Y181.689 E27.92733
G1 X58.748 Y181.235 E27.9535
G1 X58.397 Y180.551 E27.99186
G1 X58.12 Y179.833 E28.03025
G1 X57.999 Y179.424 E28.05153
G1 X57.865 Y178.919 E28.0776
G1 X57.706 Y178.166 E28.11599
G1 X57.617 Y177.023 E28.17319
G1 X57.6 Y124.763 E30.78045
G1 X57.665 Y123.784 E30.8294
G1 X57.734 Y123.266 E30.85548
G1 X57.875 Y122.51 E30.89384
G1 X58.231 Y121.414 E30.95133
G1 X58.43 Y120.933 E30.9773
G1 X58.761 Y120.239 E31.01566
G1 X59.162 Y119.582 E31.05407
G1 X59.393 Y119.263 E31.07371
G1 X59.71 Y118.849 E31.09973
G1 X60.208 Y118.264 E31.13806
G1 X60.765 Y117.733 E31.17645
G1 X61.077 Y117.479 E31.19652
G1 X61.491 Y117.161 E31.22257
G1 X62.125 Y116.725 E31.26095
G1 X62.8 Y116.357 E31.29931
G0 F3600 X63.316 Y116.564
G1 F1200 X63.798 Y116.364 E31.32535
G1 X64.503 Y116.115 E31.36265
G1 X65.558 Y115.891 E31.41645
G1 X66.077 Y115.822 E31.44258
G1 X67.002 Y115.761 E31.48882
G1 X137.547 Y115.78 E35.00833
G1 X138.498 Y115.845 E35.05589
G1 X139.582 Y115.994 E35.11047
G1 X140.516 Y116.188 E35.15807
G1 X141.566 Y116.482 E35.21247
G1 X142.467 Y116.802 E35.26017
G1 X143.469 Y117.237 E35.31467
G1 X144.321 Y117.679 E35.36255
G1 X145.254 Y118.247 E35.41705
G1 X146.027 Y118.792 E35.46423
G1 X146.873 Y119.479 E35.5186
G1 X147.574 Y120.133 E35.56643
G1 X148.32 Y120.931 E35.62093
G1 X148.933 Y121.686 E35.66945
G1 X149.562 Y122.581 E35.72403
G1 X150.048 Y123.381 E35.77073
G1 X150.55 Y124.348 E35.82509
G1 X150.933 Y125.229 E35.87301
G1 X151.299 Y126.259 E35.92755
G1 X151.557 Y127.178 E35.97517
G1 X151.779 Y128.246 E36.02959
G1 X151.908 Y129.19 E36.07712
G1 X151.983 Y130.28 E36.13163
G1 X152 Y130.764 E36.1558
G1 X151.983 Y177.024 E38.46372
G1 X151.943 Y177.771 E38.50104
G1 X151.749 Y178.816 E38.55406
G1 X151.615 Y179.321 E38.58013
G1 X151.385 Y180.033 E38.61746
G1 X150.906 Y181.035 E38.67287
G1 X150.643 Y181.489 E38.69904
G1 X150.234 Y182.115 E38.73635
G1 X149.536 Y182.93 E38.78988
G1 X149.169 Y183.297 E38.81578
G1 X148.612 Y183.797 E38.85312
G1 X147.722 Y184.407 E38.90695
G1 X147.267 Y184.67 E38.93317
G1 X146.6 Y185.01 E38.97052
G1 X145.563 Y185.375 E39.02537
G1 X145.059 Y185.509 E39.05139
G1 X144.326 Y185.662 E39.08875
G1 X143.26 Y185.744 E39.14209
G1 X66.74 Y185.744 E42.95968
G1 X65.993 Y185.704 E42.99701
G1 X64.941 Y185.509 E43.05038
G1 X64.437 Y185.375 E43.0764
G1 X63.726 Y185.144 E43.1137
G1 X62.733 Y184.67 E43.16859
G1 X62.278 Y184.407 E43.19481
G1 X61.651 Y183.999 E43.23213
G1 X60.831 Y183.297 E43.28599
G1 X60.464 Y182.93 E43.31188
G1 X59.964 Y182.373 E43.34923
G1 X59.357 Y181.489 E43.40272
G1 X59.094 Y181.035 E43.4289
G1 X58.754 Y180.368 E43.46625
G1 X58.385 Y179.321 E43.52164
G1 X58.251 Y178.816 E43.5477
G1 X58.098 Y178.084 E43.58501
G1 X58.017 Y177.023 E43.6381
G1 X58 Y124.763 E46.24536
G1 X58.061 Y123.837 E46.29166
G1 X58.13 Y123.319 E46.31773
G1 X58.269 Y122.584 E46.35505
G1 X58.601 Y121.567 E46.40842
G1 X58.8 Y121.086 E46.43439
G1 X59.122 Y120.411 E46.4717
G1 X59.71 Y119.506 E46.52555
G1 X60.027 Y119.092 E46.55156
G1 X60.513 Y118.524 E46.58886
G1 X61.321 Y117.797 E46.64308
G1 X61.735 Y117.479 E46.66913
G1 X62.352 Y117.055 E46.70648
G1 X63.316 Y116.564 E46.76045
G0 F3600 X63.47 Y116.934
G1 F1200 X63.952 Y116.734 E46.78649
G1 X64.637 Y116.493 E46.82271
G1 X65.611 Y116.288 E46.87237
G1 X66.13 Y116.219 E46.89849
G1 X67.002 Y116.161 E46.94209
G1 X137.547 Y116.18 E50.4616
G1 X138.444 Y116.241 E50.50645
G1 X139.528 Y116.39 E50.56104
G1 X140.409 Y116.573 E50.60593
G1 X141.459 Y116.867 E50.66033
G1 X142.307 Y117.169 E50.70524
G1 X143.309 Y117.604 E50.75974
G1 X144.113 Y118.021 E50.80493
G1 X145.046 Y118.589 E50.85942
G1 X145.775 Y119.103 E50.90392
G1 X146.621 Y119.79 E50.95829
G1 X147.281 Y120.406 E51.00333
G1 X148.027 Y121.204 E51.05783
G1 X148.606 Y121.916 E51.10362
G1 X149.235 Y122.811 E51.15819
G1 X149.693 Y123.565 E51.20221
G1 X150.195 Y124.532 E51.25656
G1 X150.556 Y125.363 E51.30177
G1 X150.922 Y126.393 E51.3563
G1 X151.165 Y127.26 E51.40122
G1 X151.387 Y128.328 E51.45564
G1 X151.509 Y129.218 E51.50046
G1 X151.584 Y130.308 E51.55497
G1 X151.6 Y130.763 E51.57769
G1 X151.583 Y177.023 E53.88561
G1 X151.543 Y177.749 E53.92188
G1 X151.362 Y178.714 E53.97087
G1 X151.228 Y179.219 E53.99693
G1 X151.004 Y179.909 E54.03312
G1 X150.56 Y180.834 E54.08431
G1 X150.297 Y181.288 E54.11049
G1 X149.899 Y181.896 E54.14674
G1 X149.253 Y182.647 E54.19617
G1 X148.886 Y183.014 E54.22206
G1 X148.345 Y183.498 E54.25828
G1 X147.522 Y184.061 E54.30802
G1 X147.067 Y184.324 E54.33424
G1 X146.419 Y184.652 E54.37048
G1 X145.46 Y184.988 E54.42117
G1 X144.956 Y185.122 E54.44719
G1 X144.245 Y185.27 E54.48342
G1 X143.26 Y185.344 E54.5327
G1 X66.74 Y185.344 E58.3503
G1 X66.015 Y185.304 E58.38653
G1 X65.044 Y185.122 E58.43581
G1 X64.54 Y184.988 E58.46183
G1 X63.85 Y184.763 E58.49804
G1 X62.933 Y184.324 E58.54876
G1 X62.478 Y184.061 E58.57498
G1 X61.87 Y183.664 E58.61121
G1 X61.114 Y183.014 E58.66095
G1 X60.747 Y182.647 E58.68684
G1 X60.263 Y182.106 E58.72306
G1 X59.703 Y181.288 E58.77252
G1 X59.44 Y180.834 E58.79869
G1 X59.111 Y180.187 E58.83491
G1 X58.772 Y179.219 E58.88608
G1 X58.638 Y178.714 E58.91214
G1 X58.49 Y178.002 E58.94842
G1 X58.417 Y177.023 E58.9974
G1 X58.4 Y124.763 E61.60466
G1 X58.458 Y123.89 E61.64831
G1 X58.527 Y123.372 E61.67439
G1 X58.662 Y122.658 E61.71064
G1 X58.97 Y121.72 E61.75989
G1 X59.169 Y121.239 E61.78586
G1 X59.484 Y120.584 E61.82212
G1 X60.028 Y119.75 E61.8718
G1 X60.345 Y119.336 E61.89782
G1 X60.817 Y118.784 E61.93405
G1 X61.565 Y118.114 E61.98415
G1 X61.979 Y117.796 E62.01019
G1 X62.578 Y117.386 E62.04641
G1 X63.47 Y116.934 E62.0963
G0 F3600 X63.623 Y117.303
G1 F1200 X64.105 Y117.103 E62.12233
G1 X64.769 Y116.871 E62.15742
G1 X65.664 Y116.684 E62.20304
G1 X66.183 Y116.615 E62.22916
G1 X67.002 Y116.561 E62.27011
G1 X137.547 Y116.58 E65.78961
G1 X138.389 Y116.638 E65.83172
G1 X139.473 Y116.787 E65.88631
G1 X140.301 Y116.959 E65.9285
G1 X141.351 Y117.253 E65.9829
G1 X142.148 Y117.536 E66.02509
G1 X143.15 Y117.971 E66.07959
G1 X143.905 Y118.362 E66.12201
G1 X144.838 Y118.93 E66.17651
G1 X145.522 Y119.413 E66.21828
G1 X146.368 Y120.1 E66.27265
G1 X146.989 Y120.679 E66.31501
G1 X147.735 Y121.477 E66.36951
G1 X148.279 Y122.146 E66.41253
G1 X148.908 Y123.041 E66.46711
G1 X149.338 Y123.749 E66.50843
G1 X149.84 Y124.716 E66.56279
G1 X150.179 Y125.497 E66.60527
G1 X150.545 Y126.527 E66.6598
G1 X150.773 Y127.341 E66.70197
G1 X150.995 Y128.409 E66.7564
G1 X151.11 Y129.245 E66.7985
G1 X151.185 Y130.335 E66.85301
G1 X151.2 Y130.763 E66.87437
G1 X151.183 Y177.023 E69.18229
G1 X151.143 Y177.726 E69.21742
G1 X150.976 Y178.611 E69.26235
G1 X150.842 Y179.116 E69.28842
G1 X150.623 Y179.785 E69.32354
G1 X150.214 Y180.634 E69.37056
G1 X149.951 Y181.088 E69.39673
G1 X149.564 Y181.676 E69.43185
G1 X148.97 Y182.364 E69.4772
G1 X148.603 Y182.731 E69.50309
G1 X148.078 Y183.2 E69.53821
G1 X147.322 Y183.715 E69.58385
G1 X146.867 Y183.978 E69.61007
G1 X146.238 Y184.295 E69.64521
G1 X145.357 Y184.602 E69.69176
G1 X144.853 Y184.736 E69.71777
G1 X144.164 Y184.878 E69.75287
G1 X143.26 Y184.944 E69.79809
G1 X66.74 Y184.944 E73.61569
G1 X66.037 Y184.904 E73.65082
G1 X65.147 Y184.736 E73.69601
G1 X64.643 Y184.602 E73.72202
G1 X63.974 Y184.383 E73.75714
G1 X63.133 Y183.978 E73.80371
G1 X62.678 Y183.715 E73.82993
G1 X62.09 Y183.328 E73.86505
G1 X61.397 Y182.731 E73.91069
G1 X61.03 Y182.364 E73.93658
G1 X60.561 Y181.839 E73.9717
G1 X60.049 Y181.088 E74.01705
G1 X59.786 Y180.634 E74.04322
G1 X59.468 Y180.006 E74.07834
G1 X59.158 Y179.116 E74.12536
G1 X59.024 Y178.611 E74.15143
G1 X58.883 Y177.922 E74.18651
G1 X58.817 Y177.023 E74.23149
G1 X58.8 Y124.763 E76.83875
G1 X58.854 Y123.942 E76.8798
G1 X58.923 Y123.424 E76.90587
G1 X59.056 Y122.733 E76.94098
G1 X59.34 Y121.873 E76.98616
G1 X59.539 Y121.392 E77.01213
G1 X59.845 Y120.758 E77.04725
G1 X60.345 Y119.993 E77.09285
G1 X60.662 Y119.579 E77.11886
G1 X61.121 Y119.045 E77.15399
G1 X61.808 Y118.431 E77.19996
G1 X62.222 Y118.113 E77.226
G1 X62.804 Y117.717 E77.26112
G1 X63.623 Y117.303 E77.30691
G0 F3600 X63.776 Y117.673
G1 F1200 X64.258 Y117.473 E77.33294
G1 X64.901 Y117.249 E77.36691
G1 X65.717 Y117.081 E77.40848
G1 X66.236 Y117.012 E77.4346
G1 X67.002 Y116.961 E77.4729
G1 X137.547 Y116.98 E80.9924
G1 X138.335 Y117.034 E81.03181
G1 X139.419 Y117.183 E81.0864
G1 X140.193 Y117.344 E81.12584
G1 X141.243 Y117.638 E81.18024
G1 X141.989 Y117.903 E81.21974
G1 X142.991 Y118.338 E81.27423
G1 X143.697 Y118.704 E81.31391
G1 X144.63 Y119.272 E81.3684
G1 X145.27 Y119.724 E81.40749
G1 X146.116 Y120.411 E81.46186
G1 X146.697 Y120.952 E81.50147
G1 X147.443 Y121.75 E81.55597
G1 X147.951 Y122.376 E81.59619
G1 X148.58 Y123.271 E81.65077
G1 X148.983 Y123.934 E81.68948
G1 X149.485 Y124.901 E81.74383
G1 X149.802 Y125.631 E81.78354
G1 X150.168 Y126.661 E81.83807
G1 X150.382 Y127.423 E81.87756
G1 X150.604 Y128.491 E81.93198
G1 X150.711 Y129.273 E81.97136
G1 X150.786 Y130.363 E82.02587
G1 X150.8 Y130.763 E82.04584
G1 X150.783 Y177.023 E84.35376
G1 X150.743 Y177.703 E84.38774
G1 X150.589 Y178.509 E84.42868
G1 X150.455 Y179.014 E84.45475
G1 X150.242 Y179.66 E84.48868
G1 X149.868 Y180.433 E84.53152
G1 X149.605 Y180.887 E84.5577
G1 X149.229 Y181.455 E84.59168
G1 X148.687 Y182.081 E84.633
G1 X148.32 Y182.448 E84.65889
G1 X147.811 Y182.901 E84.69288
G1 X147.122 Y183.368 E84.73441
G1 X146.667 Y183.631 E84.76063
G1 X146.058 Y183.937 E84.79463
G1 X145.254 Y184.215 E84.83707
G1 X144.75 Y184.349 E84.86309
G1 X144.083 Y184.485 E84.89705
G1 X143.26 Y184.544 E84.93822
G1 X66.74 Y184.544 E88.75582
G1 X66.06 Y184.504 E88.7898
G1 X65.25 Y184.349 E88.83095
G1 X64.746 Y184.215 E88.85696
G1 X64.099 Y184.002 E88.89095
G1 X63.333 Y183.631 E88.93341
G1 X62.878 Y183.368 E88.95963
G1 X62.31 Y182.994 E88.99356
G1 X61.68 Y182.448 E89.03515
G1 X61.313 Y182.081 E89.06104
G1 X60.86 Y181.572 E89.09504
G1 X60.395 Y180.887 E89.13634
G1 X60.132 Y180.433 E89.16252
G1 X59.826 Y179.825 E89.19648
G1 X59.545 Y179.014 E89.2393
G1 X59.411 Y178.509 E89.26536
G1 X59.275 Y177.841 E89.29938
G1 X59.217 Y177.023 E89.34029
G1 X59.2 Y124.763 E91.94755
G1 X59.251 Y123.995 E91.98595
G1 X59.32 Y123.477 E92.01202
G1 X59.449 Y122.809 E92.04596
G1 X59.71 Y122.026 E92.08714
G1 X59.909 Y121.545 E92.11311
G1 X60.205 Y120.932 E92.14707
G1 X60.663 Y120.236 E92.18864
G1 X60.98 Y119.822 E92.21465
G1 X61.425 Y119.307 E92.24861
G1 X62.052 Y118.748 E92.29052
G1 X62.466 Y118.43 E92.31656
G1 X63.029 Y118.048 E92.35051
G1 X63.776 Y117.673 E92.39221
G0 F3600 X63.929 Y118.042
