;FLAVOR:Marlin
;TIME:11205
;Filament used: 8.58498m
;Layer height: 0.2
;Generated with Cura_SteamEngine 3.6.0
M140 S58
M105
M190 S58
M104 S210
M105
M109 S210
M82 ;absolute extrusion mode
G21 ;metric values
G90 ;absolute positioning
M82 ;set extruder to absolute mode
M107 ;start with the fan off
G28 X0 Y0 ;move X/Y to min endstops
G28 Z0 ;move Z to min endstops
G1 Z15.0 F9000 ;move the platform down 15mm
G92 E0 ;zero the extruded length
G1 F200 E3 ;extrude 3mm of feed stock
G92 E0 ;zero the extruded length again
G1 F9000
;Put printing message on LCD screen
M117 Printing...
G92 E0
G1 F1500 E-6.5
;LAYER_COUNT:120
;LAYER:0
M107
G0 F3600 X61.502 Y95.892 Z0.3
;TYPE:SKIRT
G1 F1500 E0
G1 F1200 X61.895 Y95.65 E0.02303
G1 X62.345 Y95.391 E0.04893
G1 X63.049 Y95.032 E0.08836
G1 X63.785 Y94.746 E0.12775
G1 X64.236 Y94.612 E0.15122
G1 X64.741 Y94.478 E0.17729
G1 X65.513 Y94.314 E0.21666
G1 X66.298 Y94.23 E0.25605
G1 X66.739 Y94.217 E0.27806
G1 X143 Y94.2 E4.08274
G1 X144.012 Y94.266 E4.13333
G1 X144.525 Y94.333 E4.15915
G1 X145.302 Y94.474 E4.19854
G1 X146.061 Y94.694 E4.23797
G1 X146.497 Y94.859 E4.26123
G1 X146.978 Y95.058 E4.2872
G1 X147.691 Y95.397 E4.32658
G1 X148.367 Y95.806 E4.366
G1 X148.731 Y96.067 E4.38835
G1 X149.146 Y96.384 E4.4144
G1 X149.748 Y96.895 E4.4538
G1 X150.296 Y97.464 E4.49321
G1 X150.593 Y97.827 E4.51661
G1 X150.913 Y98.243 E4.54279
G1 X151.363 Y98.893 E4.58223
G1 X151.744 Y99.584 E4.6216
G1 X151.938 Y100.015 E4.64518
G1 X152.138 Y100.498 E4.67126
G1 X152.402 Y101.242 E4.71065
G1 X152.591 Y102.009 E4.75006
G1 X152.662 Y102.444 E4.77205
G1 X152.731 Y102.958 E4.79792
G1 X152.8 Y103.999 E4.84997
G1 X152.781 Y150.552 E7.17251
G1 X152.708 Y151.611 E7.22547
G1 X152.559 Y152.695 E7.28006
G1 X152.339 Y153.749 E7.33378
G1 X152.043 Y154.799 E7.3882
G1 X151.692 Y155.787 E7.44051
G1 X151.257 Y156.79 E7.49506
G1 X150.76 Y157.748 E7.5489
G1 X150.192 Y158.679 E7.60331
G1 X149.747 Y159.332 E7.64273
G1 X149.41 Y159.746 E7.66937
G1 X148.333 Y160.98 E7.75108
G1 X147.784 Y161.548 E7.79049
G1 X147.37 Y161.908 E7.81786
G1 X146.522 Y162.596 E7.87234
G1 X145.662 Y163.203 E7.92486
G1 X144.735 Y163.767 E7.97899
G1 X143.785 Y164.259 E8.03237
G1 X142.782 Y164.694 E8.08691
G1 X141.788 Y165.047 E8.13954
G1 X140.738 Y165.342 E8.19395
G1 X139.682 Y165.561 E8.24776
G1 X138.597 Y165.709 E8.30239
G1 X137.545 Y165.781 E8.355
G1 X67.001 Y165.8 E11.87445
G1 X65.991 Y165.735 E11.92494
G1 X65.477 Y165.668 E11.9508
G1 X64.7 Y165.526 E11.99021
G1 X63.941 Y165.307 E12.02962
G1 X63.501 Y165.14 E12.0531
G1 X63.018 Y164.94 E12.07918
G1 X62.305 Y164.601 E12.11857
G1 X61.629 Y164.192 E12.15799
G1 X61.258 Y163.924 E12.18082
G1 X60.843 Y163.606 E12.20691
G1 X60.241 Y163.095 E12.2463
G1 X59.694 Y162.525 E12.28571
G1 X59.397 Y162.161 E12.30915
G1 X59.078 Y161.745 E12.33531
G1 X58.63 Y161.095 E12.37469
G1 X58.25 Y160.403 E12.41408
G1 X58.06 Y159.981 E12.43717
G1 X57.861 Y159.5 E12.46314
G1 X57.597 Y158.756 E12.50252
G1 X57.409 Y157.989 E12.54192
G1 X57.327 Y157.469 E12.56819
G1 X57.258 Y156.907 E12.59643
G1 X57.2 Y155.953 E12.64412
G1 X57.218 Y103.733 E15.24938
G1 X57.258 Y102.945 E15.28875
G1 X57.378 Y102.164 E15.32817
G1 X57.487 Y101.704 E15.35175
G1 X57.623 Y101.2 E15.3778
G1 X57.867 Y100.449 E15.41719
G1 X58.186 Y99.726 E15.45662
G1 X58.407 Y99.317 E15.47981
G1 X58.671 Y98.862 E15.50606
G1 X59.102 Y98.2 E15.54547
G1 X59.597 Y97.585 E15.58485
G1 X59.91 Y97.254 E15.60758
G1 X60.278 Y96.887 E15.63351
G1 X60.865 Y96.358 E15.67293
G1 X61.502 Y95.892 E15.71231
G0 F3600 X61.755 Y96.204
G1 F1200 X62.095 Y95.996 E15.7322
G1 X62.545 Y95.737 E15.7581
G1 X63.23 Y95.389 E15.79643
G1 X63.948 Y95.113 E15.83481
G1 X64.338 Y94.999 E15.85508
G1 X64.843 Y94.865 E15.88115
G1 X65.596 Y94.706 E15.91954
G1 X66.739 Y94.617 E15.97674
G1 X143 Y94.6 E19.78142
G1 X143.96 Y94.662 E19.82941
G1 X144.473 Y94.729 E19.85522
G1 X145.23 Y94.868 E19.89362
G1 X145.968 Y95.085 E19.932
G1 X146.344 Y95.229 E19.95208
G1 X146.825 Y95.428 E19.97805
G1 X147.519 Y95.759 E20.01641
G1 X148.176 Y96.16 E20.05481
G1 X148.488 Y96.385 E20.07401
G1 X148.903 Y96.702 E20.10006
G1 X149.489 Y97.2 E20.13843
G1 X150.02 Y97.757 E20.17682
G1 X150.276 Y98.071 E20.19703
G1 X150.596 Y98.487 E20.22322
G1 X151.033 Y99.12 E20.26159
G1 X151.402 Y99.795 E20.29997
G1 X151.568 Y100.168 E20.32034
G1 X151.768 Y100.651 E20.34642
G1 X152.025 Y101.376 E20.3848
G1 X152.265 Y102.497 E20.44199
G1 X152.334 Y103.011 E20.46786
G1 X152.4 Y103.999 E20.51727
G1 X152.381 Y150.552 E22.8398
G1 X152.312 Y151.557 E22.89006
G1 X152.163 Y152.641 E22.94465
G1 X151.954 Y153.641 E22.99562
G1 X151.658 Y154.691 E23.05005
G1 X151.325 Y155.627 E23.09961
G1 X150.89 Y156.63 E23.15415
G1 X150.418 Y157.54 E23.2053
G1 X149.85 Y158.471 E23.25971
G1 X149.416 Y159.106 E23.29808
G1 X149.108 Y159.483 E23.32237
G1 X148.031 Y160.717 E23.40408
G1 X147.496 Y161.269 E23.44243
G1 X147.118 Y161.598 E23.46743
G1 X146.27 Y162.286 E23.52191
G1 X145.454 Y162.861 E23.57172
G1 X144.527 Y163.425 E23.62585
G1 X143.625 Y163.892 E23.67653
G1 X142.622 Y164.327 E23.73107
G1 X141.68 Y164.662 E23.78095
G1 X140.63 Y164.957 E23.83536
G1 X139.628 Y165.165 E23.88642
G1 X138.543 Y165.313 E23.94105
G1 X137.545 Y165.381 E23.99096
G1 X67.001 Y165.4 E27.51041
G1 X66.043 Y165.338 E27.55831
G1 X65.529 Y165.271 E27.58417
G1 X64.772 Y165.132 E27.62256
G1 X64.034 Y164.915 E27.66094
G1 X63.654 Y164.77 E27.68123
G1 X63.171 Y164.57 E27.70732
G1 X62.477 Y164.239 E27.74568
G1 X61.82 Y163.838 E27.78408
G1 X61.501 Y163.607 E27.80373
G1 X61.086 Y163.289 E27.82981
G1 X60.501 Y162.79 E27.86817
G1 X59.97 Y162.233 E27.90656
G1 X59.715 Y161.918 E27.92678
G1 X59.396 Y161.502 E27.95294
G1 X58.96 Y160.868 E27.99133
G1 X58.593 Y160.192 E28.0297
G1 X58.43 Y159.828 E28.0496
G1 X58.231 Y159.347 E28.07557
G1 X57.974 Y158.622 E28.11394
G1 X57.794 Y157.874 E28.15233
G1 X57.724 Y157.42 E28.17525
G1 X57.655 Y156.858 E28.20349
G1 X57.6 Y155.953 E28.24873
G1 X57.618 Y103.733 E30.85399
G1 X57.658 Y102.965 E30.89236
G1 X57.778 Y102.206 E30.9307
G1 X57.874 Y101.808 E30.95112
G1 X58.01 Y101.304 E30.97717
G1 X58.248 Y100.573 E31.01552
G1 X58.562 Y99.871 E31.05389
G1 X58.753 Y99.518 E31.07391
G1 X59.017 Y99.063 E31.10016
G1 X59.437 Y98.419 E31.13852
G1 X59.922 Y97.822 E31.17689
G1 X60.193 Y97.537 E31.19651
G1 X60.561 Y97.17 E31.22244
G1 X61.133 Y96.656 E31.26081
G1 X61.755 Y96.204 E31.29917
G0 F3600 X62.294 Y96.343
G1 F1200 X62.744 Y96.084 E31.32507
G1 X63.412 Y95.746 E31.36242
G1 X64.441 Y95.385 E31.41682
G1 X64.946 Y95.251 E31.44289
G1 X65.678 Y95.098 E31.4802
G1 X66.739 Y95.017 E31.53329
G1 X143 Y95 E35.33796
G1 X143.909 Y95.059 E35.38341
G1 X144.422 Y95.126 E35.40922
G1 X145.157 Y95.262 E35.44651
G1 X146.191 Y95.599 E35.50077
G1 X146.672 Y95.798 E35.52674
G1 X147.347 Y96.12 E35.56405
G1 X148.245 Y96.703 E35.61747
G1 X148.66 Y97.02 E35.64352
G1 X149.23 Y97.505 E35.68086
G1 X149.959 Y98.315 E35.73523
G1 X150.279 Y98.731 E35.76141
G1 X150.703 Y99.347 E35.79872
G1 X151.198 Y100.321 E35.85323
G1 X151.398 Y100.804 E35.87931
G1 X151.647 Y101.509 E35.91661
G1 X151.869 Y102.551 E35.96976
G1 X151.938 Y103.065 E35.99564
G1 X152 Y103.999 E36.04234
G1 X151.981 Y150.552 E38.36488
G1 X151.916 Y151.502 E38.41238
G1 X151.767 Y152.586 E38.46697
G1 X151.569 Y153.532 E38.51519
G1 X151.273 Y154.582 E38.56962
G1 X150.958 Y155.468 E38.61653
G1 X150.523 Y156.471 E38.67107
G1 X150.077 Y157.332 E38.71945
G1 X149.509 Y158.263 E38.77386
G1 X149.085 Y158.88 E38.81121
G1 X148.807 Y159.22 E38.83312
G1 X147.73 Y160.454 E38.91483
G1 X147.209 Y160.99 E38.95213
G1 X146.866 Y161.287 E38.97476
G1 X146.018 Y161.975 E39.02924
G1 X145.246 Y162.519 E39.07636
G1 X144.319 Y163.083 E39.1305
G1 X143.466 Y163.525 E39.17843
G1 X142.463 Y163.96 E39.23297
G1 X141.571 Y164.277 E39.2802
G1 X140.521 Y164.572 E39.33461
G1 X139.574 Y164.769 E39.38287
G1 X138.489 Y164.917 E39.4375
G1 X137.545 Y164.981 E39.4847
G1 X67.001 Y165 E43.00416
G1 X66.094 Y164.941 E43.04951
G1 X65.58 Y164.874 E43.07537
G1 X64.845 Y164.738 E43.11266
G1 X63.807 Y164.4 E43.16712
G1 X63.324 Y164.2 E43.1932
G1 X62.649 Y163.878 E43.23051
G1 X61.744 Y163.289 E43.28438
G1 X61.329 Y162.971 E43.31047
G1 X60.761 Y162.485 E43.34776
G1 X60.032 Y161.675 E43.40213
G1 X59.713 Y161.259 E43.42828
G1 X59.29 Y160.641 E43.46565
G1 X58.8 Y159.675 E43.51969
G1 X58.601 Y159.194 E43.54566
G1 X58.352 Y158.489 E43.58296
G1 X58.18 Y157.76 E43.62033
G1 X58.121 Y157.371 E43.63996
G1 X58.052 Y156.809 E43.6682
G1 X58 Y155.954 E43.71094
G1 X58.018 Y103.734 E46.31621
G1 X58.058 Y102.987 E46.35353
G1 X58.26 Y101.912 E46.4081
G1 X58.396 Y101.408 E46.43414
G1 X58.629 Y100.698 E46.47142
G1 X59.099 Y99.719 E46.5256
G1 X59.363 Y99.264 E46.55185
G1 X59.773 Y98.638 E46.58918
G1 X60.475 Y97.821 E46.64292
G1 X60.843 Y97.454 E46.66885
G1 X61.4 Y96.954 E46.70619
G1 X62.294 Y96.343 E46.76022
G0 F3600 X62.494 Y96.69
G1 F1200 X62.944 Y96.431 E46.78612
G1 X63.592 Y96.104 E46.82233
G1 X64.543 Y95.772 E46.87259
G1 X65.048 Y95.638 E46.89865
G1 X65.76 Y95.49 E46.93493
G1 X66.74 Y95.417 E46.98396
G1 X143.001 Y95.4 E50.78864
G1 X143.857 Y95.456 E50.83143
G1 X144.37 Y95.523 E50.85725
G1 X145.084 Y95.656 E50.89348
G1 X146.038 Y95.968 E50.94356
G1 X146.519 Y96.167 E50.96953
G1 X147.174 Y96.482 E51.00579
G1 X148.002 Y97.021 E51.05508
G1 X148.417 Y97.338 E51.08113
G1 X148.969 Y97.81 E51.11737
G1 X149.642 Y98.559 E51.1676
G1 X149.962 Y98.975 E51.19379
G1 X150.373 Y99.574 E51.23003
G1 X150.829 Y100.474 E51.28036
G1 X151.029 Y100.957 E51.30645
G1 X151.269 Y101.642 E51.34266
G1 X151.472 Y102.604 E51.39171
G1 X151.541 Y103.118 E51.41758
G1 X151.6 Y103.999 E51.46163
G1 X151.581 Y150.552 E53.78417
G1 X151.52 Y151.448 E53.82898
G1 X151.371 Y152.532 E53.88357
G1 X151.184 Y153.424 E53.92904
G1 X150.888 Y154.474 E53.98346
G1 X150.591 Y155.309 E54.02768
G1 X150.156 Y156.312 E54.08222
G1 X149.735 Y157.123 E54.12781
G1 X149.167 Y158.054 E54.18222
G1 X148.755 Y158.653 E54.21849
G1 X148.505 Y158.957 E54.23813
G1 X147.428 Y160.191 E54.31984
G1 X146.921 Y160.711 E54.35607
G1 X146.614 Y160.976 E54.37631
G1 X145.766 Y161.664 E54.43079
G1 X145.038 Y162.177 E54.47522
G1 X144.111 Y162.741 E54.52935
G1 X143.307 Y163.158 E54.57454
G1 X142.304 Y163.593 E54.62908
G1 X141.463 Y163.892 E54.67361
G1 X140.413 Y164.187 E54.72803
G1 X139.52 Y164.372 E54.77352
G1 X138.435 Y164.52 E54.82816
G1 X137.545 Y164.581 E54.87266
G1 X67.001 Y164.6 E58.39212
G1 X66.146 Y164.545 E58.43486
G1 X65.632 Y164.478 E58.46072
G1 X64.918 Y164.344 E58.49697
G1 X63.96 Y164.031 E58.54725
G1 X63.477 Y163.831 E58.57333
G1 X62.822 Y163.516 E58.60959
G1 X61.988 Y162.972 E58.65927
G1 X61.573 Y162.654 E58.68535
G1 X61.021 Y162.181 E58.72162
G1 X60.35 Y161.431 E58.77182
G1 X60.031 Y161.015 E58.79798
G1 X59.621 Y160.415 E58.83423
G1 X59.169 Y159.522 E58.88417
G1 X58.97 Y159.041 E58.91014
G1 X58.73 Y158.356 E58.94635
G1 X58.518 Y157.322 E58.99901
G1 X58.449 Y156.76 E59.02726
G1 X58.4 Y155.954 E59.06754
G1 X58.418 Y103.734 E61.67281
G1 X58.458 Y103.008 E61.70908
G1 X58.646 Y102.017 E61.75941
G1 X58.782 Y101.513 E61.78545
G1 X59.009 Y100.823 E61.82169
G1 X59.445 Y99.92 E61.87172
G1 X59.709 Y99.465 E61.89796
G1 X60.108 Y98.857 E61.93424
G1 X60.757 Y98.104 E61.98384
G1 X61.125 Y97.737 E62.00977
G1 X61.667 Y97.253 E62.04602
G1 X62.494 Y96.69 E62.09593
G0 F3600 X62.693 Y97.036
G1 F1200 X63.143 Y96.777 E62.12184
G1 X63.772 Y96.462 E62.15693
G1 X64.646 Y96.158 E62.2031
G1 X65.151 Y96.024 E62.22917
G1 X65.84 Y95.883 E62.26425
G1 X66.74 Y95.817 E62.30928
G1 X143.001 Y95.8 E66.11395
G1 X143.805 Y95.852 E66.15415
G1 X144.318 Y95.919 E66.17996
G1 X145.01 Y96.05 E66.2151
G1 X145.885 Y96.338 E66.26105
G1 X146.366 Y96.537 E66.28702
G1 X147 Y96.843 E66.32215
G1 X147.76 Y97.339 E66.36742
G1 X148.175 Y97.656 E66.39348
G1 X148.709 Y98.114 E66.42857
G1 X149.325 Y98.803 E66.47468
G1 X149.645 Y99.219 E66.50087
G1 X150.042 Y99.8 E66.53597
G1 X150.459 Y100.627 E66.58218
G1 X150.659 Y101.11 E66.60826
G1 X150.891 Y101.775 E66.6434
G1 X151.076 Y102.657 E66.68836
G1 X151.145 Y103.171 E66.71424
G1 X151.2 Y103.999 E66.75564
G1 X151.181 Y150.552 E69.07817
G1 X151.123 Y151.393 E69.12023
G1 X150.974 Y152.477 E69.17482
G1 X150.799 Y153.315 E69.21753
G1 X150.503 Y154.365 E69.27196
G1 X150.224 Y155.15 E69.31352
G1 X149.789 Y156.153 E69.36806
G1 X149.394 Y156.915 E69.41089
G1 X148.826 Y157.846 E69.46529
G1 X148.204 Y158.694 E69.51776
G1 X147.127 Y159.928 E69.59948
G1 X146.635 Y160.431 E69.63458
G1 X146.362 Y160.666 E69.65255
G1 X145.514 Y161.354 E69.70703
G1 X144.831 Y161.836 E69.74874
G1 X143.904 Y162.4 E69.80287
G1 X143.148 Y162.791 E69.84534
G1 X142.145 Y163.226 E69.89988
G1 X141.355 Y163.507 E69.94171
G1 X140.305 Y163.802 E69.99612
G1 X139.466 Y163.976 E70.03887
G1 X138.381 Y164.124 E70.0935
G1 X137.545 Y164.181 E70.13531
G1 X67.001 Y164.2 E73.65476
G1 X66.198 Y164.148 E73.69491
G1 X65.684 Y164.081 E73.72077
G1 X64.992 Y163.951 E73.7559
G1 X64.113 Y163.661 E73.80208
G1 X63.63 Y163.461 E73.82816
G1 X62.996 Y163.156 E73.86326
G1 X62.231 Y162.654 E73.90891
G1 X61.816 Y162.336 E73.93499
G1 X61.282 Y161.877 E73.97012
G1 X60.667 Y161.188 E74.0162
G1 X60.348 Y160.772 E74.04235
G1 X59.952 Y160.19 E74.07747
G1 X59.539 Y159.369 E74.12332
G1 X59.34 Y158.888 E74.14929
G1 X59.108 Y158.223 E74.18443
G1 X58.915 Y157.274 E74.23275
G1 X58.846 Y156.712 E74.26099
G1 X58.8 Y155.954 E74.29888
G1 X58.818 Y103.734 E76.90415
G1 X58.858 Y103.031 E76.93928
G1 X59.032 Y102.121 E76.9855
G1 X59.168 Y101.617 E77.01154
G1 X59.39 Y100.949 E77.04666
G1 X59.791 Y100.12 E77.09261
G1 X60.055 Y99.665 E77.11885
G1 X60.443 Y99.078 E77.15396
G1 X61.04 Y98.387 E77.19951
G1 X61.408 Y98.02 E77.22544
G1 X61.934 Y97.552 E77.26057
G1 X62.693 Y97.036 E77.30636
G0 F3600 X62.893 Y97.383
G1 F1200 X63.343 Y97.124 E77.33226
G1 X63.952 Y96.82 E77.36622
G1 X64.748 Y96.545 E77.40824
G1 X65.253 Y96.411 E77.4343
G1 X65.921 Y96.275 E77.46831
G1 X66.74 Y96.217 E77.50927
G1 X143.001 Y96.2 E81.31395
G1 X143.753 Y96.249 E81.35155
G1 X144.266 Y96.316 E81.37736
G1 X144.935 Y96.443 E81.41133
G1 X145.732 Y96.708 E81.45323
G1 X146.213 Y96.907 E81.4792
G1 X146.826 Y97.203 E81.51317
G1 X147.517 Y97.657 E81.55442
G1 X147.932 Y97.974 E81.58047
G1 X148.448 Y98.418 E81.61443
G1 X149.008 Y99.047 E81.65645
G1 X149.328 Y99.463 E81.68263
G1 X149.711 Y100.026 E81.7166
G1 X150.09 Y100.78 E81.7587
G1 X150.29 Y101.263 E81.78479
G1 X150.513 Y101.906 E81.81874
G1 X150.679 Y102.71 E81.8597
G1 X150.748 Y103.224 E81.88557
G1 X150.8 Y103.998 E81.92427
G1 X150.781 Y150.551 E84.24681
G1 X150.727 Y151.339 E84.28622
G1 X150.578 Y152.423 E84.34081
G1 X150.414 Y153.207 E84.38077
G1 X150.118 Y154.257 E84.43519
G1 X149.857 Y154.991 E84.47406
G1 X149.422 Y155.994 E84.5286
G1 X149.052 Y156.707 E84.56868
G1 X148.484 Y157.638 E84.62309
G1 X147.903 Y158.431 E84.67213
G1 X146.826 Y159.665 E84.75385
G1 X146.11 Y160.355 E84.80346
G1 X145.262 Y161.043 E84.85794
G1 X144.623 Y161.494 E84.89696
G1 X143.696 Y162.058 E84.95109
G1 X142.989 Y162.424 E84.99081
G1 X141.986 Y162.859 E85.04535
G1 X141.247 Y163.122 E85.08449
G1 X140.197 Y163.417 E85.1389
G1 X139.412 Y163.58 E85.1789
G1 X138.327 Y163.728 E85.23353
G1 X137.545 Y163.781 E85.27264
G1 X67.001 Y163.8 E88.79209
G1 X66.249 Y163.751 E88.82969
G1 X65.735 Y163.684 E88.85555
G1 X65.066 Y163.557 E88.88952
G1 X64.266 Y163.292 E88.93157
G1 X63.783 Y163.092 E88.95765
G1 X63.17 Y162.795 E88.99163
G1 X62.474 Y162.337 E89.0332
G1 X62.059 Y162.019 E89.05928
G1 X61.544 Y161.574 E89.09324
G1 X60.984 Y160.944 E89.13529
G1 X60.665 Y160.528 E89.16145
G1 X60.284 Y159.965 E89.19536
G1 X59.909 Y159.216 E89.23715
G1 X59.71 Y158.735 E89.26312
G1 X59.487 Y158.092 E89.29707
G1 X59.312 Y157.225 E89.3412
G1 X59.243 Y156.663 E89.36945
G1 X59.2 Y155.954 E89.40489
G1 X59.218 Y103.734 E92.01015
G1 X59.258 Y103.054 E92.04414
G1 X59.418 Y102.225 E92.08626
G1 X59.554 Y101.721 E92.1123
G1 X59.77 Y101.075 E92.14629
G1 X60.137 Y100.321 E92.18812
G1 X60.401 Y99.866 E92.21437
G1 X60.777 Y99.298 E92.24835
G1 X61.322 Y98.67 E92.28984
G1 X61.69 Y98.303 E92.31576
G1 X62.2 Y97.852 E92.34973
G1 X62.893 Y97.383 E92.39148
G0 F3600 X63.092 Y97.73
G1 F1200 X63.542 Y97.471 E92.41738
G1 X64.131 Y97.178 E92.4502
G1 X64.851 Y96.932 E92.48816
