;FLAVOR:Marlin
;TIME:9407
;Filament used: 3.65769m
;Layer height: 0.1
;Generated with Cura_SteamEngine 3.6.0
M140 S58
M105
M190 S58
M104 S210
M105
M109 S210
M82 ;absolute extrusion mode
G21 ;metric values
G90 ;absolute positioning
M82 ;set extruder to absolute mode
M107 ;start with the fan off
G28 X0 Y0 ;move X/Y to min endstops
G28 Z0 ;move Z to min endstops
G1 Z15.0 F9000 ;move the platform down 15mm
G92 E0 ;zero the extruded length
G1 F200 E3 ;extrude 3mm of feed stock
G92 E0 ;zero the extruded length again
G1 F9000
;Put printing message on LCD screen
M117 Printing...
G92 E0
G1 F1500 E-6.5
;LAYER_COUNT:49
;LAYER:0
M107
G0 F3600 X62.468 Y90.676 Z0.3
;TYPE:SKIRT
G1 F1500 E0
G1 F1200 X63.118 Y90.228 E0.03938
G1 X63.81 Y89.848 E0.07877
G1 X64.23 Y89.659 E0.10175
G1 X64.713 Y89.459 E0.12783
G1 X65.457 Y89.195 E0.16722
G1 X66.224 Y89.006 E0.20663
G1 X66.665 Y88.935 E0.22891
G1 X67.182 Y88.866 E0.25493
G1 X68.216 Y88.797 E0.30663
G1 X138.761 Y88.816 E3.82614
G1 X139.814 Y88.888 E3.8788
G1 X140.898 Y89.036 E3.93338
G1 X141.953 Y89.255 E3.98714
G1 X143.003 Y89.55 E4.04155
G1 X143.999 Y89.904 E4.09428
G1 X145.001 Y90.339 E4.14878
G1 X145.948 Y90.83 E4.202
G1 X146.882 Y91.398 E4.25654
G1 X147.746 Y92.007 E4.30928
G1 X148.592 Y92.694 E4.36365
G1 X149.377 Y93.426 E4.41719
G1 X150.122 Y94.224 E4.47166
G1 X150.796 Y95.054 E4.525
G1 X151.426 Y95.948 E4.57957
G1 X151.977 Y96.856 E4.63256
G1 X152.478 Y97.824 E4.68693
G1 X152.898 Y98.789 E4.73944
G1 X153.265 Y99.818 E4.79394
G1 X153.555 Y100.852 E4.84752
G1 X153.777 Y101.921 E4.90199
G1 X153.922 Y102.979 E4.95527
G1 X153.996 Y104.069 E5.00977
G1 X154.014 Y104.6 E5.03628
G1 X153.997 Y150.86 E7.3442
G1 X153.957 Y151.649 E7.38362
G1 X153.837 Y152.429 E7.42299
G1 X153.735 Y152.861 E7.44513
G1 X153.601 Y153.365 E7.47115
G1 X153.36 Y154.117 E7.51055
G1 X153.044 Y154.841 E7.54996
G1 X152.812 Y155.271 E7.57434
G1 X152.549 Y155.725 E7.60051
G1 X152.119 Y156.387 E7.6399
G1 X151.625 Y157.003 E7.67929
G1 X151.323 Y157.323 E7.70124
G1 X150.956 Y157.691 E7.72717
G1 X150.371 Y158.221 E7.76655
G1 X149.735 Y158.689 E7.80595
G1 X149.343 Y158.932 E7.82896
G1 X148.889 Y159.195 E7.85513
G1 X148.186 Y159.556 E7.89456
G1 X147.451 Y159.844 E7.93394
G1 X146.979 Y159.985 E7.95852
G1 X146.474 Y160.119 E7.98459
G1 X145.702 Y160.283 E8.02396
G1 X144.917 Y160.367 E8.06335
G1 X144.474 Y160.38 E8.08546
G1 X67.954 Y160.38 E11.90306
G1 X67.165 Y160.34 E11.94247
G1 X66.385 Y160.221 E11.98184
G1 X65.95 Y160.118 E12.00414
G1 X65.446 Y159.984 E12.03016
G1 X64.694 Y159.743 E12.06956
G1 X63.97 Y159.427 E12.10897
G1 X63.54 Y159.195 E12.13334
G1 X63.086 Y158.932 E12.15952
G1 X62.424 Y158.502 E12.1989
G1 X61.808 Y158.008 E12.2383
G1 X61.473 Y157.691 E12.26131
G1 X61.106 Y157.323 E12.28723
G1 X60.577 Y156.736 E12.32666
G1 X60.111 Y156.099 E12.36603
G1 X59.88 Y155.725 E12.38796
G1 X59.617 Y155.271 E12.41414
G1 X59.256 Y154.568 E12.45357
G1 X58.968 Y153.833 E12.49295
G1 X58.828 Y153.365 E12.51732
G1 X58.694 Y152.861 E12.54334
G1 X58.53 Y152.089 E12.58272
G1 X58.445 Y151.304 E12.62211
G1 X58.432 Y150.86 E12.64427
G1 X58.414 Y98.594 E15.25183
G1 X58.488 Y97.519 E15.30559
G1 X58.56 Y97 E15.33173
G1 X58.708 Y96.224 E15.37114
G1 X58.934 Y95.468 E15.41051
G1 X59.086 Y95.072 E15.43167
G1 X59.286 Y94.592 E15.45761
G1 X59.626 Y93.879 E15.49702
G1 X60.037 Y93.205 E15.53641
G1 X60.296 Y92.847 E15.55845
G1 X60.608 Y92.44 E15.58404
G1 X61.119 Y91.838 E15.62343
G1 X61.689 Y91.291 E15.66285
G1 X62.052 Y90.995 E15.68621
G1 X62.468 Y90.676 E15.71237
G0 F3600 X62.711 Y90.994
G1 F1200 X63.345 Y90.558 E15.75076
G1 X64.021 Y90.191 E15.78913
G1 X64.383 Y90.029 E15.80892
G1 X64.866 Y89.829 E15.835
G1 X65.591 Y89.572 E15.87337
G1 X66.718 Y89.331 E15.93087
G1 X67.235 Y89.262 E15.95689
G1 X68.216 Y89.197 E16.00594
G1 X138.761 Y89.216 E19.52545
G1 X139.76 Y89.284 E19.5754
G1 X140.844 Y89.432 E19.62999
G1 X141.845 Y89.64 E19.68099
G1 X142.895 Y89.935 E19.73541
G1 X143.84 Y90.271 E19.78544
G1 X144.842 Y90.706 E19.83994
G1 X145.74 Y91.171 E19.89039
G1 X146.674 Y91.739 E19.94493
G1 X147.494 Y92.318 E19.99501
G1 X148.34 Y93.005 E20.04938
G1 X149.084 Y93.699 E20.10014
G1 X149.829 Y94.497 E20.15461
G1 X150.469 Y95.284 E20.20522
G1 X151.099 Y96.178 E20.25978
G1 X151.622 Y97.04 E20.31008
G1 X152.123 Y98.008 E20.36446
G1 X152.521 Y98.923 E20.41424
G1 X152.888 Y99.952 E20.46875
G1 X153.163 Y100.933 E20.51957
G1 X153.385 Y102.002 E20.57404
G1 X153.523 Y103.006 E20.62461
G1 X153.597 Y104.096 E20.67911
G1 X153.614 Y104.6 E20.70427
G1 X153.597 Y150.86 E23.01219
G1 X153.557 Y151.628 E23.05056
G1 X153.349 Y152.758 E23.10788
G1 X153.215 Y153.262 E23.1339
G1 X152.979 Y153.994 E23.17227
G1 X152.668 Y154.698 E23.21067
G1 X152.466 Y155.07 E23.23179
G1 X152.203 Y155.524 E23.25796
G1 X151.784 Y156.169 E23.29634
G1 X151.04 Y157.04 E23.35348
G1 X150.673 Y157.408 E23.37941
G1 X150.102 Y157.924 E23.41781
G1 X149.481 Y158.378 E23.45619
G1 X149.142 Y158.586 E23.47603
G1 X148.688 Y158.849 E23.50221
G1 X148.004 Y159.2 E23.54056
G1 X147.286 Y159.477 E23.57896
G1 X146.877 Y159.598 E23.60024
G1 X146.372 Y159.732 E23.6263
G1 X145.619 Y159.891 E23.6647
G1 X144.474 Y159.98 E23.722
G1 X67.954 Y159.98 E27.53959
G1 X67.186 Y159.94 E27.57796
G1 X66.053 Y159.732 E27.63543
G1 X65.549 Y159.598 E27.66145
G1 X64.817 Y159.362 E27.69982
G1 X64.113 Y159.051 E27.73822
G1 X63.741 Y158.849 E27.75934
G1 X63.287 Y158.586 E27.78551
G1 X62.642 Y158.167 E27.82389
G1 X62.044 Y157.682 E27.8623
G1 X61.756 Y157.408 E27.88213
G1 X61.389 Y157.04 E27.90806
G1 X60.875 Y156.468 E27.94643
G1 X60.226 Y155.524 E28.00358
G1 X59.963 Y155.07 E28.02976
G1 X59.612 Y154.386 E28.06811
G1 X59.335 Y153.668 E28.10651
G1 X59.214 Y153.262 E28.12764
G1 X59.08 Y152.758 E28.15366
G1 X58.922 Y152.006 E28.192
G1 X58.832 Y150.86 E28.24935
G1 X58.814 Y98.594 E30.85691
G1 X58.884 Y97.574 E30.90792
G1 X58.956 Y97.055 E30.93406
G1 X59.101 Y96.3 E30.97241
G1 X59.455 Y95.226 E31.02883
G1 X59.655 Y94.746 E31.05477
G1 X59.988 Y94.052 E31.09318
G1 X60.613 Y93.09 E31.15041
G1 X60.925 Y92.683 E31.17599
G1 X61.424 Y92.098 E31.21436
G1 X61.981 Y91.567 E31.25275
G1 X62.295 Y91.313 E31.2729
G1 X62.711 Y90.994 E31.29905
G0 F3600 X62.954 Y91.311
G1 F1200 X63.572 Y90.888 E31.33642
G1 X64.536 Y90.399 E31.39034
G1 X65.019 Y90.199 E31.41642
G1 X65.724 Y89.95 E31.45373
G1 X66.771 Y89.728 E31.50712
G1 X67.288 Y89.659 E31.53314
G1 X68.216 Y89.597 E31.57955
G1 X138.761 Y89.616 E35.09905
G1 X139.706 Y89.68 E35.1463
G1 X140.79 Y89.828 E35.20089
G1 X141.736 Y90.025 E35.2491
G1 X142.786 Y90.32 E35.30351
G1 X143.681 Y90.638 E35.3509
G1 X144.683 Y91.073 E35.40539
G1 X145.532 Y91.513 E35.4531
G1 X146.466 Y92.081 E35.50764
G1 X147.242 Y92.628 E35.555
G1 X148.088 Y93.315 E35.60937
G1 X148.792 Y93.972 E35.65742
G1 X149.537 Y94.77 E35.71188
G1 X150.142 Y95.515 E35.75976
G1 X150.772 Y96.409 E35.81433
G1 X151.267 Y97.223 E35.86186
G1 X151.768 Y98.191 E35.91623
G1 X152.144 Y99.057 E35.96334
G1 X152.511 Y100.086 E36.01784
G1 X152.772 Y101.015 E36.06598
G1 X152.994 Y102.084 E36.12045
G1 X153.124 Y103.033 E36.16824
G1 X153.198 Y104.123 E36.22275
G1 X153.214 Y104.6 E36.24656
G1 X153.197 Y150.86 E38.55448
G1 X153.157 Y151.607 E38.5918
G1 X152.962 Y152.656 E38.64503
G1 X152.828 Y153.16 E38.67105
G1 X152.597 Y153.871 E38.70835
G1 X152.12 Y154.87 E38.76358
G1 X151.857 Y155.324 E38.78975
G1 X151.448 Y155.95 E38.82706
G1 X150.756 Y156.758 E38.88013
G1 X150.389 Y157.126 E38.90606
G1 X149.834 Y157.627 E38.94337
G1 X148.942 Y158.24 E38.99736
G1 X148.488 Y158.503 E39.02354
G1 X147.821 Y158.843 E39.06089
G1 X146.774 Y159.212 E39.11627
G1 X146.269 Y159.346 E39.14234
G1 X145.537 Y159.499 E39.17965
G1 X144.474 Y159.58 E39.23284
G1 X67.954 Y159.58 E43.05043
G1 X67.207 Y159.54 E43.08776
G1 X66.155 Y159.345 E43.14113
G1 X65.651 Y159.211 E43.16715
G1 X64.94 Y158.98 E43.20445
G1 X63.941 Y158.503 E43.25968
G1 X63.487 Y158.24 E43.28586
G1 X62.861 Y157.831 E43.32316
G1 X62.04 Y157.126 E43.37715
G1 X61.673 Y156.758 E43.40308
G1 X61.173 Y156.201 E43.44042
G1 X60.572 Y155.324 E43.49347
G1 X60.309 Y154.87 E43.51964
G1 X59.969 Y154.203 E43.55699
G1 X59.601 Y153.16 E43.61217
G1 X59.467 Y152.656 E43.63819
G1 X59.314 Y151.923 E43.67555
G1 X59.232 Y150.859 E43.72879
G1 X59.214 Y98.593 E46.33635
G1 X59.28 Y97.629 E46.38456
G1 X59.352 Y97.11 E46.4107
G1 X59.495 Y96.376 E46.44801
G1 X59.824 Y95.38 E46.50034
G1 X60.024 Y94.9 E46.52628
G1 X60.349 Y94.226 E46.56361
G1 X60.931 Y93.333 E46.61679
G1 X61.243 Y92.926 E46.64237
G1 X61.729 Y92.358 E46.67967
G1 X62.538 Y91.63 E46.73397
G1 X62.954 Y91.311 E46.76012
G0 F3600 X63.198 Y91.629
G1 F1200 X63.798 Y91.219 E46.79638
G1 X64.689 Y90.768 E46.8462
G1 X65.172 Y90.568 E46.87228
G1 X65.857 Y90.328 E46.90849
G1 X66.824 Y90.124 E46.9578
G1 X67.341 Y90.055 E46.98382
G1 X68.216 Y89.997 E47.02757
G1 X138.761 Y90.016 E50.54707
G1 X139.652 Y90.077 E50.59163
G1 X140.736 Y90.225 E50.64621
G1 X141.628 Y90.41 E50.69166
G1 X142.678 Y90.705 E50.74607
G1 X143.521 Y91.005 E50.79072
G1 X144.523 Y91.44 E50.84521
G1 X145.324 Y91.855 E50.89022
G1 X146.258 Y92.423 E50.94476
G1 X146.99 Y92.939 E50.98944
G1 X147.836 Y93.626 E51.04381
G1 X148.499 Y94.245 E51.08906
G1 X149.244 Y95.043 E51.14353
G1 X149.815 Y95.745 E51.18867
G1 X150.445 Y96.639 E51.24324
G1 X150.911 Y97.407 E51.28805
G1 X151.412 Y98.375 E51.34243
G1 X151.767 Y99.192 E51.38687
G1 X152.134 Y100.221 E51.44138
G1 X152.38 Y101.096 E51.48673
G1 X152.602 Y102.165 E51.5412
G1 X152.725 Y103.06 E51.58627
G1 X152.799 Y104.15 E51.64077
G1 X152.814 Y104.599 E51.66319
G1 X152.797 Y150.859 E53.97111
G1 X152.757 Y151.585 E54.00738
G1 X152.575 Y152.553 E54.05652
G1 X152.441 Y153.057 E54.08254
G1 X152.216 Y153.747 E54.11875
G1 X151.774 Y154.669 E54.16976
G1 X151.511 Y155.123 E54.19594
G1 X151.113 Y155.731 E54.23219
G1 X150.473 Y156.476 E54.28119
G1 X150.106 Y156.844 E54.30712
G1 X149.566 Y157.329 E54.34333
G1 X148.741 Y157.894 E54.39322
G1 X148.287 Y158.157 E54.41939
G1 X147.64 Y158.486 E54.45561
G1 X146.672 Y158.825 E54.50678
G1 X146.167 Y158.959 E54.53284
G1 X145.455 Y159.107 E54.56912
G1 X144.474 Y159.18 E54.6182
G1 X67.954 Y159.18 E58.4358
G1 X67.229 Y159.14 E58.47203
G1 X66.258 Y158.958 E58.52131
G1 X65.754 Y158.824 E58.54733
G1 X65.064 Y158.599 E58.58354
G1 X64.142 Y158.157 E58.63455
G1 X63.688 Y157.894 E58.66073
G1 X63.08 Y157.496 E58.69698
G1 X62.323 Y156.844 E58.74682
G1 X61.956 Y156.476 E58.77275
G1 X61.472 Y155.934 E58.80901
G1 X60.918 Y155.123 E58.85801
G1 X60.655 Y154.669 E58.88418
G1 X60.326 Y154.022 E58.9204
G1 X59.988 Y153.057 E58.97141
G1 X59.854 Y152.553 E58.99743
G1 X59.706 Y151.842 E59.03366
G1 X59.632 Y150.859 E59.08284
G1 X59.614 Y98.593 E61.6904
G1 X59.677 Y97.684 E61.73586
G1 X59.749 Y97.165 E61.762
G1 X59.888 Y96.452 E61.79824
G1 X60.194 Y95.534 E61.84652
G1 X60.394 Y95.054 E61.87246
G1 X60.71 Y94.399 E61.90874
G1 X61.248 Y93.577 E61.95776
G1 X61.56 Y93.17 E61.98334
G1 X62.033 Y92.618 E62.01961
G1 X62.782 Y91.948 E62.06974
G1 X63.198 Y91.629 E62.0959
G0 F3600 X63.441 Y91.946
G1 F1200 X64.023 Y91.55 E62.13102
G1 X64.842 Y91.138 E62.17676
G1 X65.325 Y90.938 E62.20284
G1 X65.99 Y90.706 E62.23798
G1 X66.877 Y90.52 E62.28319
G1 X67.394 Y90.451 E62.30921
G1 X68.216 Y90.397 E62.35031
G1 X138.761 Y90.416 E65.86982
G1 X139.598 Y90.473 E65.91167
G1 X140.682 Y90.621 E65.96625
G1 X141.52 Y90.795 E66.00895
G1 X142.57 Y91.09 E66.06337
G1 X143.362 Y91.372 E66.10531
G1 X144.364 Y91.807 E66.15981
G1 X145.117 Y92.197 E66.20211
G1 X146.051 Y92.765 E66.25665
G1 X146.737 Y93.249 E66.29854
G1 X147.583 Y93.936 E66.35291
G1 X148.207 Y94.518 E66.39548
G1 X148.952 Y95.316 E66.44994
G1 X149.488 Y95.976 E66.49236
G1 X150.118 Y96.87 E66.54693
G1 X150.556 Y97.591 E66.58901
G1 X151.057 Y98.559 E66.64339
G1 X151.391 Y99.326 E66.68513
G1 X151.758 Y100.355 E66.73963
G1 X151.988 Y101.177 E66.78222
G1 X152.21 Y102.246 E66.83669
G1 X152.326 Y103.087 E66.87904
G1 X152.4 Y104.177 E66.93355
G1 X152.414 Y104.599 E66.95461
G1 X152.397 Y150.859 E69.26254
G1 X152.357 Y151.562 E69.29767
G1 X152.189 Y152.45 E69.34275
G1 X152.055 Y152.954 E69.36877
G1 X151.836 Y153.623 E69.40389
G1 X151.428 Y154.469 E69.45075
G1 X151.165 Y154.923 E69.47693
G1 X150.778 Y155.511 E69.51205
G1 X150.19 Y156.193 E69.55697
G1 X149.823 Y156.561 E69.5829
G1 X149.298 Y157.031 E69.61805
G1 X148.541 Y157.548 E69.66379
G1 X148.087 Y157.811 E69.68997
G1 X147.459 Y158.129 E69.72508
G1 X146.569 Y158.439 E69.7721
G1 X146.064 Y158.573 E69.79817
G1 X145.375 Y158.714 E69.83326
G1 X144.474 Y158.78 E69.87833
G1 X67.954 Y158.78 E73.69593
G1 X67.251 Y158.74 E73.73106
G1 X66.361 Y158.572 E73.77624
G1 X65.857 Y158.438 E73.80226
G1 X65.188 Y158.219 E73.83738
G1 X64.342 Y157.811 E73.88424
G1 X63.888 Y157.548 E73.91041
G1 X63.3 Y157.161 E73.94553
G1 X62.606 Y156.561 E73.9913
G1 X62.239 Y156.193 E74.01723
G1 X61.771 Y155.667 E74.05236
G1 X61.264 Y154.923 E74.09728
G1 X61.001 Y154.469 E74.12345
G1 X60.683 Y153.841 E74.15857
G1 X60.374 Y152.954 E74.20543
G1 X60.24 Y152.45 E74.23145
G1 X60.098 Y151.761 E74.26655
G1 X60.032 Y150.859 E74.31167
G1 X60.014 Y98.593 E76.91923
G1 X60.073 Y97.739 E76.96194
G1 X60.145 Y97.22 E76.98808
G1 X60.281 Y96.529 E77.02321
G1 X60.563 Y95.687 E77.06751
G1 X60.763 Y95.207 E77.09346
G1 X61.07 Y94.574 E77.12856
G1 X61.565 Y93.82 E77.17356
G1 X61.877 Y93.413 E77.19914
G1 X62.337 Y92.879 E77.2343
G1 X63.025 Y92.265 E77.28031
G1 X63.441 Y91.946 E77.30646
G0 F3600 X63.685 Y92.263
G1 F1200 X64.248 Y91.882 E77.34038
G1 X64.995 Y91.507 E77.38208
G1 X65.478 Y91.307 E77.40816
G1 X66.121 Y91.084 E77.44211
G1 X66.93 Y90.917 E77.48333
G1 X67.447 Y90.848 E77.50935
G1 X68.216 Y90.797 E77.5478
G1 X138.761 Y90.816 E81.0673
G1 X139.544 Y90.869 E81.10646
G1 X140.628 Y91.017 E81.16104
G1 X141.412 Y91.18 E81.20099
G1 X142.462 Y91.475 E81.2554
G1 X143.203 Y91.739 E81.29465
G1 X144.205 Y92.174 E81.34914
G1 X144.909 Y92.538 E81.38868
G1 X145.843 Y93.106 E81.44322
G1 X146.485 Y93.56 E81.48245
G1 X147.331 Y94.247 E81.53682
G1 X147.915 Y94.791 E81.57664
G1 X148.66 Y95.589 E81.6311
G1 X149.161 Y96.206 E81.67076
G1 X149.791 Y97.1 E81.72532
G1 X150.201 Y97.775 E81.76472
G1 X150.702 Y98.743 E81.8191
G1 X151.014 Y99.461 E81.85816
G1 X151.381 Y100.49 E81.91266
G1 X151.597 Y101.259 E81.95251
G1 X151.819 Y102.328 E82.00698
G1 X151.927 Y103.114 E82.04657
G1 X152.001 Y104.204 E82.10107
G1 X152.014 Y104.599 E82.12079
G1 X151.997 Y150.859 E84.42871
G1 X151.957 Y151.539 E84.46269
G1 X151.802 Y152.347 E84.50374
G1 X151.668 Y152.851 E84.52976
G1 X151.455 Y153.498 E84.56374
G1 X151.082 Y154.268 E84.60643
G1 X150.819 Y154.722 E84.6326
G1 X150.443 Y155.29 E84.66659
G1 X149.907 Y155.911 E84.70751
G1 X149.54 Y156.279 E84.73344
G1 X149.032 Y156.732 E84.7674
G1 X148.34 Y157.202 E84.80913
G1 X147.886 Y157.465 E84.83531
G1 X147.278 Y157.771 E84.86927
G1 X146.467 Y158.052 E84.91209
G1 X145.962 Y158.186 E84.93816
G1 X145.294 Y158.322 E84.97217
G1 X144.474 Y158.38 E85.01318
G1 X67.954 Y158.38 E88.83078
G1 X67.274 Y158.34 E88.86476
G1 X66.464 Y158.185 E88.9059
G1 X65.96 Y158.051 E88.93192
G1 X65.313 Y157.838 E88.96591
G1 X64.543 Y157.465 E89.00859
G1 X64.089 Y157.202 E89.03477
G1 X63.521 Y156.826 E89.06875
G1 X62.889 Y156.279 E89.11045
G1 X62.522 Y155.911 E89.13638
G1 X62.071 Y155.401 E89.17035
G1 X61.61 Y154.722 E89.21129
G1 X61.347 Y154.268 E89.23747
G1 X61.041 Y153.66 E89.27143
G1 X60.761 Y152.851 E89.31414
G1 X60.627 Y152.347 E89.34015
G1 X60.491 Y151.68 E89.37412
G1 X60.432 Y150.859 E89.41518
G1 X60.414 Y98.593 E92.02274
G1 X60.469 Y97.794 E92.0627
G1 X60.541 Y97.275 E92.08884
G1 X60.674 Y96.607 E92.12282
G1 X60.932 Y95.841 E92.16315
G1 X61.132 Y95.361 E92.18909
G1 X61.43 Y94.749 E92.22305
G1 X61.883 Y94.063 E92.26406
G1 X62.195 Y93.656 E92.28965
G1 X62.64 Y93.141 E92.3236
G1 X63.269 Y92.582 E92.36559
G1 X63.685 Y92.263 E92.39174
G0 F3600 X63.928 Y92.581
G1 F1200 X64.473 Y92.214 E92.42452
G1 X65.148 Y91.877 E92.46216
G1 X65.631 Y91.677 E92.48824
G1 X66.252 Y91.463 E92.52101
G1 X66.983 Y91.313 E92.55824
G1 X67.5 Y91.244 E92.58426
G1 X68.215 Y91.197 E92.62001
G1 X138.76 Y91.216 E96.13952
G1 X139.489 Y91.266 E96.17597
G1 X140.573 Y91.414 E96.23055
G1 X141.304 Y91.565 E96.26779
G1 X142.354 Y91.86 E96.32221
