;FLAVOR:Marlin
;TIME:11442
;Filament used: 8.54815m
;Layer height: 0.2
;Generated with Cura_SteamEngine 3.6.0
M140 S58
M105
M190 S58
M104 S210
M105
M109 S210
M82 ;absolute extrusion mode
G21 ;metric values
G90 ;absolute positioning
M82 ;set extruder to absolute mode
M107 ;start with the fan off
G28 X0 Y0 ;move X/Y to min endstops
G28 Z0 ;move Z to min endstops
G1 Z15.0 F9000 ;move the platform down 15mm
G92 E0 ;zero the extruded length
G1 F200 E3 ;extrude 3mm of feed stock
G92 E0 ;zero the extruded length again
G1 F9000
;Put printing message on LCD screen
M117 Printing...
G92 E0
G1 F1500 E-6.5
;LAYER_COUNT:120
;LAYER:0
M107
G0 F3600 X62.328 Y108.612 Z0.3
;TYPE:SKIRT
G1 F1500 E0
G1 F1200 X63.03 Y108.251 E0.03938
G1 X63.766 Y107.963 E0.07881
G1 X64.236 Y107.823 E0.10328
G1 X64.741 Y107.689 E0.12935
G1 X65.513 Y107.525 E0.16872
G1 X66.298 Y107.441 E0.20811
G1 X66.739 Y107.428 E0.23012
G1 X142.998 Y107.41 E4.0347
G1 X144.049 Y107.481 E4.08725
G1 X144.572 Y107.552 E4.11358
G1 X145.348 Y107.698 E4.15298
G1 X146.106 Y107.921 E4.1924
G1 X146.523 Y108.081 E4.21468
G1 X147.003 Y108.281 E4.24062
G1 X147.716 Y108.621 E4.28003
G1 X148.39 Y109.032 E4.31942
G1 X148.764 Y109.302 E4.34243
G1 X149.178 Y109.621 E4.3685
G1 X149.778 Y110.134 E4.40789
G1 X150.323 Y110.706 E4.4473
G1 X150.604 Y111.05 E4.46946
G1 X150.918 Y111.459 E4.49519
G1 X151.367 Y112.109 E4.5346
G1 X151.747 Y112.801 E4.57399
G1 X151.94 Y113.23 E4.59746
G1 X152.14 Y113.714 E4.62359
G1 X152.404 Y114.458 E4.66297
G1 X152.592 Y115.225 E4.70237
G1 X152.661 Y115.653 E4.724
G1 X152.73 Y116.166 E4.74982
G1 X152.8 Y117.209 E4.80198
G1 X152.781 Y163.762 E7.12451
G1 X152.708 Y164.821 E7.17747
G1 X152.559 Y165.905 E7.23206
G1 X152.339 Y166.959 E7.28578
G1 X152.043 Y168.009 E7.34021
G1 X151.692 Y168.997 E7.39252
G1 X151.257 Y170 E7.44706
G1 X150.762 Y170.955 E7.50072
G1 X150.194 Y171.887 E7.55518
G1 X149.749 Y172.54 E7.5946
G1 X149.408 Y172.959 E7.62155
G1 X148.331 Y174.192 E7.70323
G1 X147.782 Y174.76 E7.74264
G1 X147.37 Y175.118 E7.76987
G1 X146.522 Y175.806 E7.82435
G1 X145.662 Y176.413 E7.87687
G1 X144.735 Y176.977 E7.931
G1 X143.785 Y177.469 E7.98438
G1 X142.782 Y177.904 E8.03892
G1 X141.788 Y178.257 E8.09155
G1 X140.738 Y178.552 E8.14596
G1 X139.689 Y178.77 E8.19941
G1 X138.604 Y178.919 E8.25405
G1 X137.545 Y178.992 E8.30701
G1 X67 Y179.01 E11.82651
G1 X65.959 Y178.941 E11.87856
G1 X65.438 Y178.871 E11.90479
G1 X64.662 Y178.726 E11.94418
G1 X63.904 Y178.504 E11.98358
G1 X63.464 Y178.335 E12.0071
G1 X62.984 Y178.134 E12.03306
G1 X62.272 Y177.792 E12.07247
G1 X61.598 Y177.38 E12.11188
G1 X61.241 Y177.121 E12.13388
G1 X60.825 Y176.801 E12.16006
G1 X60.225 Y176.289 E12.19942
G1 X59.679 Y175.718 E12.23883
G1 X59.381 Y175.352 E12.26238
G1 X59.068 Y174.942 E12.28811
G1 X58.621 Y174.291 E12.32751
G1 X58.243 Y173.598 E12.36689
G1 X58.06 Y173.191 E12.38916
G1 X57.861 Y172.71 E12.41513
G1 X57.597 Y171.966 E12.45451
G1 X57.409 Y171.199 E12.49391
G1 X57.338 Y170.766 E12.5158
G1 X57.269 Y170.252 E12.54168
G1 X57.2 Y169.212 E12.59367
G1 X57.216 Y116.952 E15.20094
G1 X57.256 Y116.163 E15.24035
G1 X57.376 Y115.382 E15.27977
G1 X57.473 Y114.967 E15.30103
G1 X57.606 Y114.462 E15.32709
G1 X57.846 Y113.71 E15.36647
G1 X58.16 Y112.986 E15.40584
G1 X58.396 Y112.546 E15.43075
G1 X58.659 Y112.091 E15.45697
G1 X59.088 Y111.428 E15.49637
G1 X59.582 Y110.812 E15.53576
G1 X59.897 Y110.479 E15.55863
G1 X60.265 Y110.111 E15.5846
G1 X60.851 Y109.581 E15.62402
G1 X61.487 Y109.114 E15.66338
G1 X61.872 Y108.876 E15.68596
G1 X62.328 Y108.612 E15.71225
G0 F3600 X62.528 Y108.958
G1 F1200 X63.213 Y108.608 E15.75063
G1 X63.931 Y108.33 E15.78904
G1 X64.338 Y108.21 E15.81021
G1 X64.843 Y108.076 E15.83628
G1 X65.596 Y107.917 E15.87467
G1 X66.739 Y107.828 E15.93187
G1 X142.998 Y107.81 E19.73645
G1 X143.995 Y107.877 E19.7863
G1 X144.518 Y107.948 E19.81263
G1 X145.274 Y108.091 E19.85102
G1 X146.369 Y108.45 E19.90851
G1 X146.849 Y108.65 E19.93445
G1 X147.543 Y108.983 E19.97285
G1 X148.198 Y109.385 E20.01119
G1 X148.52 Y109.619 E20.03105
G1 X148.934 Y109.938 E20.05713
G1 X149.518 Y110.439 E20.09552
G1 X150.287 Y111.294 E20.15289
G1 X150.601 Y111.703 E20.17861
G1 X151.037 Y112.336 E20.21696
G1 X151.405 Y113.012 E20.25536
G1 X151.57 Y113.383 E20.27562
G1 X151.77 Y113.867 E20.30174
G1 X152.027 Y114.592 E20.34012
G1 X152.265 Y115.707 E20.397
G1 X152.334 Y116.22 E20.42282
G1 X152.4 Y117.209 E20.47228
G1 X152.381 Y163.762 E22.79481
G1 X152.312 Y164.767 E22.84507
G1 X152.163 Y165.851 E22.89966
G1 X151.954 Y166.851 E22.95063
G1 X151.658 Y167.901 E23.00506
G1 X151.325 Y168.837 E23.05462
G1 X150.89 Y169.84 E23.10916
G1 X150.42 Y170.747 E23.16013
G1 X149.852 Y171.679 E23.21458
G1 X149.418 Y172.314 E23.25295
G1 X149.106 Y172.696 E23.27756
G1 X148.029 Y173.929 E23.35924
G1 X147.494 Y174.481 E23.39759
G1 X147.118 Y174.808 E23.42245
G1 X146.27 Y175.496 E23.47693
G1 X145.454 Y176.071 E23.52673
G1 X144.527 Y176.635 E23.58087
G1 X143.625 Y177.102 E23.63154
G1 X142.622 Y177.537 E23.68609
G1 X141.68 Y177.872 E23.73596
G1 X140.63 Y178.167 E23.79038
G1 X139.635 Y178.374 E23.84108
G1 X138.55 Y178.523 E23.89572
G1 X137.545 Y178.592 E23.94598
G1 X67 Y178.61 E27.46548
G1 X66.013 Y178.544 E27.51483
G1 X65.492 Y178.474 E27.54106
G1 X64.736 Y178.332 E27.57944
G1 X63.999 Y178.113 E27.6178
G1 X63.619 Y177.966 E27.63812
G1 X63.139 Y177.765 E27.66408
G1 X62.446 Y177.431 E27.70246
G1 X61.485 Y176.804 E27.75971
G1 X61.069 Y176.484 E27.7859
G1 X60.485 Y175.984 E27.82425
G1 X59.955 Y175.426 E27.86265
G1 X59.699 Y175.109 E27.88297
G1 X59.386 Y174.699 E27.90871
G1 X58.952 Y174.065 E27.94704
G1 X58.43 Y173.038 E28.00452
G1 X58.231 Y172.557 E28.03049
G1 X57.974 Y171.832 E28.06886
G1 X57.735 Y170.713 E28.12595
G1 X57.666 Y170.199 E28.15182
G1 X57.6 Y169.212 E28.20117
G1 X57.616 Y116.952 E30.80844
G1 X57.656 Y116.184 E30.8468
G1 X57.86 Y115.069 E30.90335
G1 X57.993 Y114.564 E30.92941
G1 X58.227 Y113.832 E30.96775
G1 X58.536 Y113.127 E31.00615
G1 X58.742 Y112.746 E31.02776
G1 X59.005 Y112.291 E31.05398
G1 X59.424 Y111.646 E31.09235
G1 X59.908 Y111.048 E31.13073
G1 X60.179 Y110.761 E31.15043
G1 X60.547 Y110.393 E31.17639
G1 X61.119 Y109.879 E31.21476
G1 X61.741 Y109.426 E31.25315
G1 X62.072 Y109.222 E31.27254
G1 X62.528 Y108.958 E31.29883
G0 F3600 X62.729 Y109.304
G1 F1200 X63.395 Y108.964 E31.33614
G1 X64.441 Y108.596 E31.39146
G1 X64.946 Y108.462 E31.41752
G1 X65.678 Y108.309 E31.45483
G1 X66.739 Y108.228 E31.50792
G1 X142.998 Y108.21 E35.3125
G1 X143.942 Y108.274 E35.3597
G1 X144.465 Y108.345 E35.38603
G1 X145.199 Y108.485 E35.42331
G1 X146.215 Y108.819 E35.47667
G1 X146.695 Y109.019 E35.50261
G1 X147.369 Y109.344 E35.53995
G1 X148.276 Y109.936 E35.59398
G1 X148.69 Y110.255 E35.62006
G1 X149.257 Y110.743 E35.65738
G1 X149.969 Y111.537 E35.71059
G1 X150.283 Y111.946 E35.73631
G1 X150.707 Y112.563 E35.77366
G1 X151.2 Y113.536 E35.82808
G1 X151.4 Y114.02 E35.85421
G1 X151.649 Y114.725 E35.89151
G1 X151.869 Y115.76 E35.9443
G1 X151.938 Y116.273 E35.97012
G1 X152 Y117.209 E36.01692
G1 X151.981 Y163.762 E38.33946
G1 X151.916 Y164.712 E38.38697
G1 X151.767 Y165.796 E38.44156
G1 X151.569 Y166.742 E38.48978
G1 X151.273 Y167.792 E38.5442
G1 X150.958 Y168.678 E38.59112
G1 X150.523 Y169.681 E38.64566
G1 X150.078 Y170.539 E38.69388
G1 X149.51 Y171.471 E38.74833
G1 X149.088 Y172.088 E38.78563
G1 X148.805 Y172.433 E38.80789
G1 X147.728 Y173.666 E38.88956
G1 X147.206 Y174.202 E38.92689
G1 X146.866 Y174.497 E38.94935
G1 X146.018 Y175.185 E39.00383
G1 X145.246 Y175.729 E39.05095
G1 X144.319 Y176.293 E39.10508
G1 X143.466 Y176.735 E39.15301
G1 X142.463 Y177.17 E39.20755
G1 X141.571 Y177.487 E39.25478
G1 X140.521 Y177.782 E39.3092
G1 X139.58 Y177.978 E39.35715
G1 X138.495 Y178.127 E39.41179
G1 X137.545 Y178.192 E39.4593
G1 X67 Y178.21 E42.9788
G1 X66.066 Y178.148 E43.0255
G1 X65.545 Y178.078 E43.05173
G1 X64.81 Y177.939 E43.08905
G1 X63.773 Y177.597 E43.14352
G1 X63.293 Y177.396 E43.16949
G1 X62.62 Y177.07 E43.20679
G1 X61.729 Y176.487 E43.25992
G1 X61.313 Y176.167 E43.2861
G1 X60.745 Y175.68 E43.32343
G1 X60.017 Y174.867 E43.37787
G1 X59.704 Y174.457 E43.40361
G1 X59.283 Y173.839 E43.44091
G1 X58.8 Y172.885 E43.49426
G1 X58.601 Y172.404 E43.52023
G1 X58.352 Y171.699 E43.55753
G1 X58.131 Y170.659 E43.61058
G1 X58.062 Y170.145 E43.63645
G1 X58 Y169.212 E43.6831
G1 X58.016 Y116.952 E46.29036
G1 X58.056 Y116.205 E46.32769
G1 X58.247 Y115.171 E46.38014
G1 X58.38 Y114.666 E46.4062
G1 X58.609 Y113.954 E46.44351
G1 X59.089 Y112.946 E46.49921
G1 X59.352 Y112.491 E46.52543
G1 X59.76 Y111.864 E46.56275
G1 X60.462 Y111.044 E46.61661
G1 X60.83 Y110.676 E46.64257
G1 X61.387 Y110.176 E46.67991
G1 X62.273 Y109.568 E46.73352
G1 X62.729 Y109.304 E46.75981
G0 F3600 X62.929 Y109.65
G1 F1200 X63.577 Y109.321 E46.79607
G1 X64.543 Y108.983 E46.84713
G1 X65.048 Y108.849 E46.87319
G1 X65.76 Y108.701 E46.90947
G1 X66.739 Y108.628 E46.95845
G1 X142.998 Y108.61 E50.76303
G1 X143.888 Y108.67 E50.80753
G1 X144.411 Y108.741 E50.83386
G1 X145.124 Y108.878 E50.87009
G1 X146.061 Y109.189 E50.91934
G1 X146.541 Y109.389 E50.94528
G1 X147.196 Y109.705 E50.98157
G1 X148.031 Y110.253 E51.03139
G1 X148.445 Y110.572 E51.05747
G1 X148.995 Y111.046 E51.09369
G1 X149.652 Y111.781 E51.14288
G1 X149.966 Y112.19 E51.1686
G1 X150.376 Y112.789 E51.20482
G1 X150.831 Y113.688 E51.25508
G1 X151.031 Y114.172 E51.28121
G1 X151.271 Y114.858 E51.31747
G1 X151.472 Y115.813 E51.36616
G1 X151.541 Y116.326 E51.39198
G1 X151.6 Y117.209 E51.43614
G1 X151.581 Y163.762 E53.75867
G1 X151.52 Y164.658 E53.80348
G1 X151.371 Y165.742 E53.85807
G1 X151.184 Y166.634 E53.90354
G1 X150.888 Y167.684 E53.95796
G1 X150.591 Y168.519 E54.00218
G1 X150.156 Y169.522 E54.05672
G1 X149.737 Y170.331 E54.10218
G1 X149.169 Y171.263 E54.15663
G1 X148.757 Y171.861 E54.19286
G1 X148.504 Y172.17 E54.21278
G1 X147.427 Y173.403 E54.29446
G1 X146.92 Y173.923 E54.33069
G1 X146.614 Y174.186 E54.35082
G1 X145.766 Y174.874 E54.4053
G1 X145.038 Y175.387 E54.44973
G1 X144.111 Y175.951 E54.50387
G1 X143.307 Y176.368 E54.54906
G1 X142.304 Y176.803 E54.6036
G1 X141.463 Y177.102 E54.64813
G1 X140.413 Y177.397 E54.70254
G1 X139.526 Y177.582 E54.74775
G1 X138.441 Y177.731 E54.80239
G1 X137.545 Y177.792 E54.84719
G1 X67 Y177.81 E58.3667
G1 X66.119 Y177.751 E58.41075
G1 X65.598 Y177.681 E58.43697
G1 X64.885 Y177.545 E58.47319
G1 X63.928 Y177.228 E58.52348
G1 X63.448 Y177.027 E58.54945
G1 X62.794 Y176.71 E58.5857
G1 X61.973 Y176.17 E58.63473
G1 X61.557 Y175.85 E58.66091
G1 X61.006 Y175.376 E58.69718
G1 X60.335 Y174.624 E58.74746
G1 X60.022 Y174.214 E58.77319
G1 X59.614 Y173.613 E58.80943
G1 X59.169 Y172.732 E58.85867
G1 X58.97 Y172.251 E58.88464
G1 X58.73 Y171.566 E58.92086
G1 X58.528 Y170.606 E58.9698
G1 X58.459 Y170.092 E58.99567
G1 X58.4 Y169.212 E59.03967
G1 X58.416 Y116.952 E61.64694
G1 X58.456 Y116.227 E61.68316
G1 X58.634 Y115.273 E61.73158
G1 X58.767 Y114.768 E61.75763
G1 X58.99 Y114.077 E61.79386
G1 X59.435 Y113.146 E61.84534
G1 X59.698 Y112.691 E61.87156
G1 X60.095 Y112.083 E61.90778
G1 X60.745 Y111.327 E61.95753
G1 X61.113 Y110.959 E61.98349
G1 X61.654 Y110.475 E62.01971
G1 X62.473 Y109.914 E62.06923
G1 X62.929 Y109.65 E62.09552
G0 F3600 X63.13 Y109.996
G1 F1200 X63.758 Y109.679 E62.13062
G1 X64.646 Y109.369 E62.17754
G1 X65.151 Y109.235 E62.20361
G1 X65.84 Y109.094 E62.23869
G1 X66.74 Y109.028 E62.28372
G1 X142.999 Y109.01 E66.08829
G1 X143.834 Y109.066 E66.13004
G1 X144.357 Y109.137 E66.15638
G1 X145.048 Y109.272 E66.1915
G1 X145.908 Y109.558 E66.23672
G1 X146.388 Y109.758 E66.26266
G1 X147.021 Y110.065 E66.29776
G1 X147.787 Y110.57 E66.34353
G1 X148.201 Y110.889 E66.36961
G1 X148.734 Y111.349 E66.40473
G1 X149.335 Y112.024 E66.44982
G1 X149.649 Y112.433 E66.47555
G1 X150.045 Y113.015 E66.51067
G1 X150.461 Y113.841 E66.55681
G1 X150.661 Y114.325 E66.58294
G1 X150.893 Y114.99 E66.61807
G1 X151.076 Y115.867 E66.66277
G1 X151.145 Y116.38 E66.68859
G1 X151.2 Y117.209 E66.73004
G1 X151.181 Y163.762 E69.05258
G1 X151.123 Y164.603 E69.09464
G1 X150.974 Y165.687 E69.14923
G1 X150.799 Y166.525 E69.19194
G1 X150.503 Y167.575 E69.24637
G1 X150.224 Y168.36 E69.28793
G1 X149.789 Y169.363 E69.34247
G1 X149.395 Y170.123 E69.38518
G1 X148.827 Y171.055 E69.43963
G1 X148.427 Y171.634 E69.47474
G1 X148.202 Y171.907 E69.49239
G1 X147.125 Y173.14 E69.57407
G1 X146.633 Y173.643 E69.60917
G1 X146.362 Y173.876 E69.627
G1 X145.514 Y174.564 E69.68148
G1 X144.831 Y175.046 E69.72319
G1 X143.904 Y175.61 E69.77733
G1 X143.148 Y176.001 E69.81979
G1 X142.145 Y176.436 E69.87433
G1 X141.355 Y176.717 E69.91616
G1 X140.305 Y177.012 E69.97058
G1 X139.472 Y177.185 E70.01302
G1 X138.387 Y177.334 E70.06766
G1 X137.545 Y177.392 E70.10977
G1 X67 Y177.41 E73.62927
G1 X66.172 Y177.355 E73.67067
G1 X65.651 Y177.285 E73.6969
G1 X64.96 Y177.152 E73.73201
G1 X64.082 Y176.859 E73.77818
G1 X63.602 Y176.658 E73.80415
G1 X62.969 Y176.349 E73.83929
G1 X62.217 Y175.853 E73.88423
G1 X61.801 Y175.533 E73.91042
G1 X61.268 Y175.073 E73.94554
G1 X60.653 Y174.381 E73.99173
G1 X60.34 Y173.971 E74.01746
G1 X59.945 Y173.388 E74.0526
G1 X59.539 Y172.579 E74.09776
G1 X59.34 Y172.098 E74.12373
G1 X59.108 Y171.433 E74.15886
G1 X58.924 Y170.553 E74.20372
G1 X58.855 Y170.039 E74.22959
G1 X58.8 Y169.212 E74.27094
G1 X58.816 Y116.952 E76.8782
G1 X58.856 Y116.249 E76.91333
G1 X59.02 Y115.375 E76.9577
G1 X59.153 Y114.87 E76.98375
G1 X59.371 Y114.2 E77.0189
G1 X59.781 Y113.346 E77.06616
G1 X60.044 Y112.891 E77.09238
G1 X60.431 Y112.303 E77.1275
G1 X61.028 Y111.61 E77.17314
G1 X61.396 Y111.242 E77.1991
G1 X61.921 Y110.773 E77.23422
G1 X62.674 Y110.26 E77.27968
G1 X63.13 Y109.996 E77.30597
G0 F3600 X63.33 Y110.343
G1 F1200 X63.938 Y110.037 E77.33993
G1 X64.748 Y109.756 E77.3827
G1 X65.253 Y109.622 E77.40877
G1 X65.921 Y109.486 E77.44278
G1 X66.74 Y109.428 E77.48374
G1 X142.999 Y109.41 E81.28832
G1 X143.78 Y109.463 E81.32737
G1 X144.303 Y109.534 E81.3537
G1 X144.971 Y109.665 E81.38766
G1 X145.754 Y109.927 E81.42886
G1 X146.234 Y110.127 E81.4548
G1 X146.846 Y110.425 E81.48876
G1 X147.543 Y110.887 E81.53048
G1 X147.957 Y111.206 E81.55655
G1 X148.471 Y111.652 E81.5905
G1 X149.018 Y112.268 E81.6316
G1 X149.332 Y112.677 E81.65733
G1 X149.714 Y113.241 E81.69131
G1 X150.091 Y113.994 E81.73333
G1 X150.291 Y114.478 E81.75945
G1 X150.514 Y115.121 E81.79341
G1 X150.679 Y115.92 E81.83411
G1 X150.748 Y116.433 E81.85994
G1 X150.8 Y117.208 E81.89869
G1 X150.781 Y163.761 E84.22123
G1 X150.727 Y164.549 E84.26063
G1 X150.578 Y165.633 E84.31522
G1 X150.414 Y166.417 E84.35518
G1 X150.118 Y167.467 E84.40961
G1 X149.857 Y168.201 E84.44847
G1 X149.422 Y169.204 E84.50302
G1 X149.054 Y169.914 E84.54291
G1 X148.486 Y170.846 E84.59737
G1 X147.901 Y171.644 E84.64673
G1 X146.824 Y172.877 E84.72841
G1 X146.11 Y173.565 E84.77788
G1 X145.262 Y174.253 E84.83236
G1 X144.623 Y174.704 E84.87138
G1 X143.696 Y175.268 E84.92551
G1 X142.989 Y175.634 E84.96523
G1 X141.986 Y176.069 E85.01977
G1 X141.247 Y176.332 E85.05891
G1 X140.197 Y176.627 E85.11332
G1 X139.417 Y176.789 E85.15307
G1 X138.332 Y176.938 E85.2077
G1 X137.544 Y176.992 E85.24711
G1 X66.999 Y177.01 E88.76661
G1 X66.226 Y176.958 E88.80527
G1 X65.705 Y176.888 E88.83149
G1 X65.036 Y176.758 E88.86549
G1 X64.237 Y176.49 E88.90754
G1 X63.757 Y176.289 E88.9335
G1 X63.145 Y175.989 E88.9675
G1 X62.461 Y175.536 E89.00844
G1 X62.045 Y175.216 E89.03462
G1 X61.53 Y174.77 E89.06861
G1 X60.971 Y174.138 E89.1107
G1 X60.658 Y173.728 E89.13644
G1 X60.277 Y173.164 E89.17039
G1 X59.909 Y172.426 E89.21154
G1 X59.71 Y171.945 E89.23751
G1 X59.487 Y171.302 E89.27146
G1 X59.321 Y170.5 E89.31232
G1 X59.252 Y169.986 E89.33819
G1 X59.2 Y169.212 E89.3769
G1 X59.216 Y116.952 E91.98416
G1 X59.256 Y116.273 E92.01809
G1 X59.407 Y115.477 E92.05851
G1 X59.54 Y114.972 E92.08457
G1 X59.752 Y114.325 E92.11853
G1 X60.128 Y113.546 E92.16169
G1 X60.391 Y113.091 E92.18791
G1 X60.765 Y112.523 E92.22184
G1 X61.311 Y111.893 E92.26343
G1 X61.679 Y111.525 E92.28939
G1 X62.188 Y111.072 E92.32339
G1 X62.874 Y110.607 E92.36474
G1 X63.33 Y110.343 E92.39102
G0 F3600 X63.53 Y110.689
G1 F1200 X64.118 Y110.395 E92.42382
G1 X64.851 Y110.143 E92.46249
